Lapland-Robotics/AI.R-RoboDog/catkin_ws/src/robotdog/datas/roll_data.csv
timestamp;q0;dq0;tau0;q1;dq1;tau1;q2;dq2;tau2;q3;dq3;tau3;q4;dq4;tau4;q5;dq5;tau5;q6;dq6;tau6;q7;dq7;tau7;q8;dq8;tau8;q9;dq9;tau9;q10;dq10;tau10;q11;dq11;tau11;ff0;ff1;ff2;ff3;px0;py0;pz0;px1;py1;pz1;px2;py2;pz2;px3;py3;pz3
1758267956.748247146606;0.142425;-0.011210;0.589844;0.813860;-0.000439;0.492188;-1.638579;-0.000261;5.562500;-0.050866;-0.009469;-1.085938;0.847165;0.001944;0.343750;-1.599421;0.000422;3.558594;0.067701;-0.015995;1.109375;0.857157;-0.000767;-0.023438;-1.625015;-0.000006;5.710938;0.026644;0.008873;-1.878906;0.771048;0.005170;0.691406;-1.551824;0.000337;3.523438;369;143;321;150;0.189697;-0.084656;-0.299254;0.174010;0.111568;-0.300241;-0.201176;-0.106751;-0.297405;-0.186621;0.134804;-0.301834
1758267956.768023252487;0.142425;-0.007877;0.542969;0.813860;0.000350;0.542969;-1.638579;-0.006012;5.636719;-0.050806;0.002770;-1.062500;0.847165;-0.002467;0.218750;-1.599421;0.000118;3.523438;0.067761;-0.002998;1.234375;0.857157;0.000301;-0.023438;-1.625015;0.000137;5.750000;0.026644;0.000545;-1.804688;0.771048;0.007025;0.664062;-1.551824;0.001605;3.707031;369;142;320;150;0.189697;-0.084656;-0.299254;0.173999;0.111587;-0.300231;-0.201158;-0.106769;-0.297402;-0.186621;0.134822;-0.301829
1758267956.788509368896;0.142425;-0.006584;0.640625;0.813860;0.000256;0.417969;-1.638539;0.011952;5.636719;-0.050866;0.000797;-1.062500;0.847165;0.000472;0.320312;-1.599421;-0.000011;3.597656;0.067761;-0.002078;1.136719;0.857157;-0.008656;0.046875;-1.625015;0.005083;5.785156;0.026644;-0.000725;-1.878906;0.770987;0.001727;0.640625;-1.551824;0.000394;3.671875;369;143;320;150;0.189679;-0.084656;-0.299254;0.174017;0.111569;-0.300235;-0.201158;-0.106751;-0.297406;-0.186621;0.134822;-0.301829
1758267956.808483123779;0.142486;0.000631;0.589844;0.813860;-0.004823;0.441406;-1.638539;0.010090;5.636719;-0.050806;0.002746;-1.062500;0.847165;-0.001177;0.394531;-1.599421;0.000106;3.820312;0.067701;-0.014729;1.210938;0.857157;0.000415;0.000000;-1.625015;0.000342;5.898438;0.026584;-0.002274;-1.976562;0.771048;0.003308;0.640625;-1.551824;0.005694;3.671875;369;142;320;150;0.189679;-0.084638;-0.299256;0.174017;0.111587;-0.300231;-0.201176;-0.106751;-0.297405;-0.186621;0.134822;-0.301829
1758267956.828479766846;0.142425;-0.005548;0.566406;0.813860;-0.000201;0.468750;-1.638579;-0.002123;5.562500;-0.050866;-0.005275;-1.109375;0.847165;-0.001264;0.292969;-1.599421;0.000073;3.632812;0.067761;0.001856;1.160156;0.857157;-0.003615;-0.023438;-1.625015;0.000016;6.007812;0.026644;-0.000203;-2.000000;0.771048;0.004001;0.640625;-1.551824;0.001076;3.746094;369;143;320;150;0.189679;-0.084638;-0.299256;0.174017;0.111569;-0.300235;-0.201176;-0.106733;-0.297408;-0.186621;0.134804;-0.301834
1758267956.848454713821;0.142425;-0.002081;0.589844;0.813860;-0.000590;0.617188;-1.638579;-0.000194;5.562500;-0.050806;0.006242;-1.109375;0.847165;0.001548;0.269531;-1.599421;0.000183;3.820312;0.067761;0.003978;1.136719;0.857157;0.000105;0.000000;-1.625015;0.003081;5.675781;0.026584;-0.004521;-1.851562;0.771048;0.002964;0.664062;-1.551824;0.000202;3.820312;370;143;320;150;0.189679;-0.084638;-0.299256;0.174017;0.111587;-0.300231;-0.201176;-0.106751;-0.297405;-0.186621;0.134822;-0.301829
1758267956.868990898132;0.142486;0.005979;0.617188;0.813860;-0.000080;0.492188;-1.638579;-0.000159;5.710938;-0.050806;0.013129;-1.109375;0.847165;-0.001252;0.292969;-1.599421;0.000018;3.597656;0.067761;0.002049;1.160156;0.857157;-0.000408;-0.023438;-1.625015;0.000281;5.750000;0.026584;-0.007372;-1.828125;0.771048;-0.001650;0.640625;-1.551824;0.000310;3.558594;369;143;320;150;0.189679;-0.084638;-0.299256;0.174017;0.111569;-0.300235;-0.201176;-0.106751;-0.297405;-0.186621;0.134822;-0.301829
1758267956.889008522034;0.142425;-0.014643;0.589844;0.813860;-0.000512;0.515625;-1.638579;-0.000570;5.675781;-0.050806;0.008212;-1.085938;0.847165;0.000498;0.320312;-1.599421;-0.000359;3.558594;0.067761;0.008036;1.183594;0.857157;-0.000288;-0.023438;-1.625015;0.003935;5.710938;0.026584;-0.008230;-2.000000;0.770987;-0.013204;0.691406;-1.551824;0.000608;3.671875;370;143;320;150;0.189679;-0.084638;-0.299256;0.174017;0.111587;-0.300231;-0.201176;-0.106751;-0.297405;-0.186621;0.134822;-0.301829
1758267956.908420324326;0.142486;0.000356;0.640625;0.813921;0.008719;0.417969;-1.638579;0.000088;5.488281;-0.050866;-0.013348;-1.085938;0.847165;-0.001263;0.246094;-1.599421;-0.000046;3.597656;0.067761;0.010395;1.183594;0.857157;0.000334;-0.070312;-1.625015;0.002746;5.824219;0.026644;0.004695;-1.925781;0.771048;-0.002433;0.839844;-1.551824;0.000481;3.707031;369;143;320;150;0.189679;-0.084638;-0.299256;0.174017;0.111569;-0.300235;-0.201176;-0.106751;-0.297405;-0.186621;0.134804;-0.301834
1758267956.928332090378;0.142486;0.006046;0.515625;0.813860;0.003938;0.468750;-1.638579;-0.000181;5.562500;-0.050866;-0.005228;-1.109375;0.847165;0.001682;0.269531;-1.599421;0.000361;3.781250;0.067701;-0.016065;1.160156;0.857096;-0.015344;0.070312;-1.625015;0.000167;5.785156;0.026644;0.002275;-1.828125;0.771048;-0.007355;0.617188;-1.551865;-0.000632;3.632812;369;143;320;150;0.189673;-0.084637;-0.299262;0.174035;0.111587;-0.300232;-0.201176;-0.106769;-0.297401;-0.186615;0.134822;-0.301822
1758267956.948498964310;0.142425;-0.000803;0.566406;0.813860;0.000065;0.468750;-1.638579;-0.006962;5.601562;-0.050866;-0.002990;-1.085938;0.847165;0.004603;0.320312;-1.599421;0.000012;3.632812;0.067701;-0.011726;1.109375;0.857157;-0.000484;-0.097656;-1.625015;0.004788;5.675781;0.026644;0.014230;-1.828125;0.771048;0.003752;0.542969;-1.551865;-0.007013;3.632812;369;143;320;150;0.189679;-0.084656;-0.299254;0.174017;0.111569;-0.300235;-0.201152;-0.106751;-0.297400;-0.186615;0.134822;-0.301822
1758267956.969034433365;0.142486;0.004739;0.566406;0.813860;-0.009029;0.468750;-1.638579;-0.000062;5.601562;-0.050866;0.002174;-1.035156;0.847105;-0.007425;0.292969;-1.599421;-0.001437;3.597656;0.067761;0.006034;1.109375;0.857157;-0.000260;0.000000;-1.625015;0.000990;5.710938;0.026644;0.006829;-1.851562;0.771048;0.000981;0.589844;-1.551824;0.006953;3.781250;369;143;320;150;0.189679;-0.084656;-0.299254;0.174035;0.111587;-0.300232;-0.201176;-0.106769;-0.297401;-0.186621;0.134822;-0.301829
1758267956.988704681396;0.142425;-0.004303;0.589844;0.813860;-0.005480;0.417969;-1.638579;-0.000547;5.601562;-0.050927;-0.015257;-1.085938;0.847165;0.013399;0.320312;-1.599421;0.000026;3.597656;0.067761;-0.000835;1.210938;0.857157;-0.000125;-0.046875;-1.625056;-0.012101;5.601562;0.026644;0.003946;-1.902344;0.770987;-0.008980;0.714844;-1.551824;0.001055;3.558594;370;143;320;150;0.189679;-0.084638;-0.299256;0.174035;0.111550;-0.300240;-0.201176;-0.106751;-0.297405;-0.186596;0.134804;-0.301828
1758267957.008878707886;0.142425;-0.006799;0.664062;0.813860;0.001772;0.468750;-1.638579;-0.000369;5.710938;-0.050866;-0.000974;-1.085938;0.847105;-0.013520;0.292969;-1.599421;-0.004593;3.558594;0.067761;-0.000466;1.136719;0.857096;-0.011390;-0.171875;-1.625015;-0.000020;5.785156;0.026644;0.007138;-1.878906;0.771048;0.008841;0.691406;-1.551865;-0.001114;3.781250;370;143;320;150;0.189697;-0.084638;-0.299256;0.174017;0.111587;-0.300231;-0.201176;-0.106751;-0.297405;-0.186596;0.134804;-0.301828
1758267957.028557300568;0.142486;0.019816;0.640625;0.813860;0.005656;0.468750;-1.638539;0.009213;5.710938;-0.050866;0.002630;-1.035156;0.847105;-0.000962;0.343750;-1.599421;-0.000032;3.597656;0.067761;0.003279;1.085938;0.857157;0.000018;0.046875;-1.625015;0.000134;5.785156;0.026644;0.014646;-1.953125;0.770987;-0.002502;0.617188;-1.551865;-0.004498;3.558594;369;143;320;150;0.189673;-0.084656;-0.299260;0.174035;0.111569;-0.300236;-0.201176;-0.106751;-0.297405;-0.186596;0.134822;-0.301822
1758267957.048375129700;0.142425;-0.010636;0.566406;0.813799;-0.008117;0.394531;-1.638579;-0.000367;5.675781;-0.050927;-0.017145;-1.011719;0.847105;0.002381;0.367188;-1.599421;-0.000800;3.597656;0.067701;-0.011205;1.136719;0.857157;0.000116;0.046875;-1.625015;0.006091;5.785156;0.026584;-0.001266;-1.804688;0.770987;-0.001487;0.738281;-1.551865;0.000649;3.449219;369;143;320;150;0.189679;-0.084638;-0.299256;0.174035;0.111569;-0.300236;-0.201176;-0.106751;-0.297405;-0.186596;0.134804;-0.301828
1758267957.068221092224;0.142486;0.002275;0.566406;0.813799;-0.016647;0.515625;-1.638579;-0.000074;5.562500;-0.050866;0.007327;-1.109375;0.847165;0.012662;0.269531;-1.599421;0.000288;3.671875;0.067701;-0.003211;1.160156;0.857157;0.009186;-0.023438;-1.625015;0.001049;5.675781;0.026584;-0.001363;-1.925781;0.771048;0.003439;0.714844;-1.551865;0.000264;3.671875;369;143;320;149;0.189679;-0.084638;-0.299256;0.174035;0.111569;-0.300236;-0.201176;-0.106769;-0.297401;-0.186596;0.134804;-0.301828
1758267957.088343381882;0.142486;0.002492;0.640625;0.813860;0.008315;0.515625;-1.638579;0.000102;5.710938;-0.050866;0.001166;-1.085938;0.847105;-0.003832;0.195312;-1.599421;-0.000370;3.632812;0.067701;-0.004794;1.136719;0.857157;0.007405;-0.070312;-1.625015;-0.000092;5.785156;0.026584;-0.009066;-1.828125;0.770987;-0.007440;0.589844;-1.551865;-0.003607;3.632812;369;143;320;150;0.189679;-0.084638;-0.299256;0.174035;0.111569;-0.300236;-0.201176;-0.106769;-0.297401;-0.186621;0.134822;-0.301829
1758267957.108198881149;0.142425;-0.000931;0.566406;0.813860;-0.000351;0.468750;-1.638579;-0.002777;5.636719;-0.050866;0.000609;-1.109375;0.847105;-0.001818;0.343750;-1.599380;0.010523;3.597656;0.067701;-0.002800;1.085938;0.857157;0.006024;0.046875;-1.625015;0.001070;5.824219;0.026644;0.006098;-1.878906;0.770987;-0.003968;0.617188;-1.551824;-0.000188;3.746094;369;143;320;150;0.189673;-0.084656;-0.299260;0.174035;0.111569;-0.300236;-0.201176;-0.106769;-0.297401;-0.186596;0.134822;-0.301822
1758267957.128234624863;0.142425;-0.011520;0.566406;0.813860;0.003424;0.468750;-1.638579;-0.000232;5.675781;-0.050806;0.018870;-1.062500;0.847105;-0.000153;0.195312;-1.599421;0.000025;3.558594;0.067701;0.005246;1.257812;0.857096;-0.011091;-0.097656;-1.625015;0.000176;5.601562;0.026584;-0.018615;-1.902344;0.771048;0.009101;0.664062;-1.551865;0.007175;3.558594;369;143;320;150;0.189679;-0.084656;-0.299254;0.174035;0.111569;-0.300236;-0.201158;-0.106769;-0.297402;-0.186615;0.134822;-0.301822
1758267957.148162603378;0.142425;-0.003950;0.566406;0.813860;0.001357;0.468750;-1.638539;0.006911;5.675781;-0.050866;0.002446;-1.085938;0.847105;-0.000256;0.269531;-1.599380;0.014461;3.632812;0.067761;0.000128;1.234375;0.857096;-0.011214;-0.046875;-1.625015;0.007719;5.750000;0.026644;0.007358;-2.000000;0.770987;-0.001284;0.617188;-1.551865;-0.001515;3.597656;369;143;320;150;0.189673;-0.084637;-0.299262;0.174035;0.111569;-0.300236;-0.201176;-0.106751;-0.297405;-0.186596;0.134822;-0.301822
1758267957.168178796768;0.142486;0.011768;0.589844;0.813799;-0.012078;0.441406;-1.638579;-0.010660;5.675781;-0.050866;0.000505;-1.109375;0.847105;0.000571;0.195312;-1.599421;0.000111;3.597656;0.067761;0.011570;1.136719;0.857157;0.008651;-0.070312;-1.625015;0.000547;5.710938;0.026584;-0.005921;-1.851562;0.770987;-0.003960;0.664062;-1.551865;0.000545;3.632812;369;143;320;150;0.189697;-0.084656;-0.299254;0.174035;0.111569;-0.300236;-0.201170;-0.106769;-0.297395;-0.186596;0.134822;-0.301822
1758267957.188735723495;0.142425;-0.000681;0.566406;0.813799;-0.014564;0.441406;-1.638579;-0.000371;5.562500;-0.050927;-0.003250;-1.035156;0.847105;-0.009015;0.218750;-1.599421;-0.000050;3.449219;0.067761;0.002228;1.062500;0.857157;0.000672;0.000000;-1.625056;-0.009037;5.898438;0.026584;-0.000513;-1.851562;0.770987;-0.002025;0.691406;-1.551865;-0.002729;3.632812;369;143;320;150;0.189679;-0.084656;-0.299254;0.174035;0.111550;-0.300240;-0.201176;-0.106751;-0.297405;-0.186590;0.134822;-0.301816
1758267957.208057403564;0.142486;0.008767;0.664062;0.813860;0.003910;0.515625;-1.638579;-0.000586;5.675781;-0.050866;0.003129;-1.160156;0.847105;-0.009047;0.292969;-1.599421;-0.000104;3.597656;0.067761;0.000328;1.183594;0.857096;-0.019526;-0.070312;-1.625015;0.000355;5.859375;0.026644;0.000767;-1.925781;0.770987;-0.001256;0.738281;-1.551865;-0.000771;3.820312;369;143;320;150;0.189679;-0.084638;-0.299256;0.174035;0.111569;-0.300236;-0.201158;-0.106751;-0.297406;-0.186596;0.134822;-0.301822
1758267957.228029012680;0.142425;-0.007336;0.664062;0.813860;0.009219;0.441406;-1.638579;-0.000016;5.601562;-0.050927;-0.014458;-1.109375;0.847105;-0.000452;0.292969;-1.599421;-0.001967;3.632812;0.067701;0.000640;1.109375;0.857157;0.004443;0.046875;-1.625015;0.000328;5.859375;0.026644;0.001837;-2.000000;0.770987;-0.006770;0.664062;-1.551865;0.000669;3.558594;369;143;320;150;0.189673;-0.084656;-0.299260;0.174035;0.111550;-0.300240;-0.201170;-0.106769;-0.297395;-0.186602;0.134804;-0.301834
1758267957.247992515564;0.142486;0.012781;0.566406;0.813799;-0.009018;0.441406;-1.638579;-0.011877;5.562500;-0.050927;-0.009435;-1.035156;0.847165;0.008725;0.218750;-1.599421;-0.000126;3.671875;0.067701;-0.000654;1.183594;0.857157;0.013647;-0.121094;-1.625015;0.000201;5.710938;0.026584;-0.007498;-2.074219;0.770987;-0.000725;0.640625;-1.551824;0.007029;3.558594;369;143;320;150;0.189691;-0.084656;-0.299260;0.174041;0.111569;-0.300230;-0.201158;-0.106769;-0.297402;-0.186596;0.134804;-0.301828
1758267957.267889738083;0.142486;0.014080;0.617188;0.813860;0.002588;0.441406;-1.638579;-0.000695;5.675781;-0.050866;0.018908;-1.085938;0.847105;-0.000561;0.292969;-1.599421;0.000084;3.671875;0.067761;0.006003;1.257812;0.857096;-0.004363;-0.097656;-1.625015;0.000038;5.859375;0.026644;0.011588;-1.878906;0.771048;0.015382;0.714844;-1.551865;-0.001627;3.632812;370;143;320;150;0.189697;-0.084656;-0.299254;0.174035;0.111550;-0.300240;-0.201158;-0.106751;-0.297406;-0.186596;0.134804;-0.301828
1758267957.288172483444;0.142486;0.006760;0.617188;0.813860;0.007016;0.468750;-1.638579;-0.005631;5.710938;-0.050927;-0.009675;-1.062500;0.847105;-0.006546;0.195312;-1.599421;-0.000002;3.632812;0.067640;-0.011069;1.136719;0.857096;-0.002504;-0.023438;-1.625015;0.001900;5.750000;0.026584;-0.001757;-2.050781;0.770987;0.001014;0.640625;-1.551824;0.008668;3.558594;369;143;320;150;0.189697;-0.084656;-0.299254;0.174035;0.111569;-0.300236;-0.201158;-0.106769;-0.297402;-0.186615;0.134804;-0.301828
1758267957.308124303818;0.142425;-0.002841;0.617188;0.813799;-0.006577;0.441406;-1.638579;-0.004733;5.785156;-0.050866;0.005071;-1.062500;0.847105;-0.001783;0.195312;-1.599421;0.001659;3.558594;0.067640;0.008977;1.085938;0.857096;-0.005506;-0.070312;-1.625015;-0.001418;5.933594;0.026584;-0.015415;-1.925781;0.770926;-0.014143;0.640625;-1.551865;-0.002851;3.671875;369;143;320;149;0.189673;-0.084656;-0.299260;0.174035;0.111550;-0.300240;-0.201158;-0.106787;-0.297398;-0.186596;0.134822;-0.301822
1758267957.328328371048;0.142486;0.008152;0.589844;0.813799;-0.010289;0.468750;-1.638539;0.001566;5.785156;-0.050866;0.008943;-1.234375;0.846984;-0.026358;0.367188;-1.599421;-0.000087;3.597656;0.067761;0.005728;1.183594;0.857096;0.005754;-0.121094;-1.625056;-0.006797;5.750000;0.026644;0.012049;-1.925781;0.770987;0.006493;0.617188;-1.551865;0.000231;3.632812;369;143;320;149;0.189691;-0.084656;-0.299260;0.174052;0.111550;-0.300241;-0.201140;-0.106751;-0.297406;-0.186578;0.134822;-0.301822
1758267957.348468542099;0.142425;-0.000563;0.617188;0.813799;-0.003961;0.441406;-1.638579;-0.010447;5.824219;-0.050866;0.004593;-1.035156;0.847044;-0.002589;0.269531;-1.599421;0.004606;3.632812;0.067640;-0.014513;1.183594;0.857036;-0.020724;-0.023438;-1.625015;0.005157;5.785156;0.026584;-0.000908;-1.925781;0.770926;-0.007779;0.714844;-1.551865;-0.000433;3.558594;369;143;320;150;0.189691;-0.084656;-0.299260;0.174052;0.111568;-0.300237;-0.201158;-0.106769;-0.297402;-0.186590;0.134822;-0.301816
1758267957.368816137314;0.142425;-0.000598;0.566406;0.813860;0.014435;0.441406;-1.638539;0.006874;5.675781;-0.050866;0.003426;-1.085938;0.847044;0.004684;0.246094;-1.599421;0.000031;3.632812;0.067701;-0.000512;1.160156;0.857036;-0.005064;-0.121094;-1.625015;0.000346;5.859375;0.026584;-0.010994;-1.953125;0.770987;0.012557;0.691406;-1.551865;-0.000236;3.671875;369;143;320;149;0.189697;-0.084656;-0.299254;0.174052;0.111568;-0.300237;-0.201158;-0.106769;-0.297402;-0.186596;0.134822;-0.301822
1758267957.387993097305;0.142425;0.000286;0.492188;0.813799;-0.007229;0.542969;-1.638579;-0.006472;5.710938;-0.050927;-0.010985;-1.085938;0.847105;0.012617;0.343750;-1.599421;-0.000081;3.746094;0.067640;-0.016551;1.183594;0.857096;0.010414;-0.070312;-1.625015;0.000149;5.710938;0.026644;0.002563;-1.953125;0.770987;0.001225;0.566406;-1.551865;-0.003887;3.671875;369;143;320;150;0.189691;-0.084637;-0.299262;0.174035;0.111550;-0.300240;-0.201176;-0.106769;-0.297401;-0.186596;0.134804;-0.301828
1758267957.408086299896;0.142425;-0.008914;0.617188;0.813799;-0.005512;0.492188;-1.638579;-0.000433;5.675781;-0.050927;-0.008553;-1.035156;0.847044;-0.003562;0.269531;-1.599421;-0.000076;3.632812;0.067701;0.000817;1.085938;0.857096;0.002408;0.000000;-1.625015;0.005458;5.785156;0.026584;-0.003457;-1.953125;0.770987;0.002671;0.492188;-1.551824;0.007707;3.632812;369;143;320;150;0.189697;-0.084656;-0.299254;0.174052;0.111568;-0.300237;-0.201158;-0.106769;-0.297402;-0.186596;0.134804;-0.301828
1758267957.428008794785;0.142425;-0.004716;0.566406;0.813860;0.008865;0.441406;-1.638579;-0.002589;5.636719;-0.050927;-0.010649;-1.136719;0.847044;-0.001594;0.218750;-1.599421;-0.000030;3.597656;0.067701;-0.005328;1.183594;0.857096;-0.005830;-0.046875;-1.625015;0.004393;5.710938;0.026584;-0.010054;-1.925781;0.770987;0.002752;0.765625;-1.551865;-0.000689;3.707031;369;143;320;150;0.189697;-0.084656;-0.299254;0.174052;0.111568;-0.300237;-0.201170;-0.106769;-0.297395;-0.186596;0.134804;-0.301828
1758267957.448065757751;0.142486;0.000478;0.617188;0.813799;-0.007256;0.417969;-1.638579;-0.002300;5.675781;-0.050927;-0.016722;-1.062500;0.847044;-0.004705;0.269531;-1.599421;-0.003775;3.707031;0.067701;-0.001640;1.109375;0.857096;0.001538;-0.144531;-1.625056;-0.012873;5.710938;0.026584;-0.015143;-1.828125;0.770987;0.000985;0.589844;-1.551865;-0.001844;3.707031;369;143;320;150;0.189673;-0.084637;-0.299262;0.174052;0.111550;-0.300241;-0.201152;-0.106769;-0.297396;-0.186596;0.134804;-0.301828
1758267957.468358993530;0.142486;0.013064;0.617188;0.813799;-0.005009;0.468750;-1.638579;-0.001686;5.527344;-0.050866;0.000757;-1.109375;0.847044;-0.013154;0.343750;-1.599421;0.000036;3.597656;0.067761;0.006628;1.109375;0.857096;-0.001809;-0.070312;-1.625015;0.004405;5.675781;0.026644;0.014615;-1.828125;0.770987;-0.000822;0.691406;-1.551824;0.005343;3.968750;369;143;319;150;0.189691;-0.084637;-0.299262;0.174052;0.111568;-0.300237;-0.201158;-0.106769;-0.297402;-0.186602;0.134804;-0.301834
1758267957.488110780716;0.142486;-0.000511;0.617188;0.813799;-0.000485;0.394531;-1.638579;-0.000271;5.675781;-0.050866;-0.000295;-1.085938;0.847044;-0.006175;0.218750;-1.599421;0.002227;3.484375;0.067701;-0.001581;1.210938;0.857157;0.014416;0.000000;-1.625015;-0.000096;5.785156;0.026584;-0.004576;-1.925781;0.770987;-0.000162;0.515625;-1.551824;0.000777;3.632812;369;143;320;150;0.189697;-0.084656;-0.299254;0.174035;0.111569;-0.300236;-0.201176;-0.106751;-0.297405;-0.186615;0.134822;-0.301822
1758267957.508146286011;0.142486;0.000271;0.664062;0.813860;0.014764;0.468750;-1.638539;0.008866;5.675781;-0.050866;-0.013652;-1.062500;0.847105;0.004396;0.292969;-1.599421;-0.003890;3.894531;0.067640;-0.002559;1.085938;0.857157;0.013367;-0.121094;-1.625015;0.000637;5.859375;0.026584;-0.001491;-1.851562;0.770987;-0.000616;0.691406;-1.551824;0.000577;3.523438;369;143;319;150;0.189697;-0.084656;-0.299254;0.174052;0.111568;-0.300237;-0.201158;-0.106787;-0.297398;-0.186602;0.134804;-0.301834
1758267957.528242111206;0.142486;0.010221;0.542969;0.813799;-0.007150;0.468750;-1.638579;0.000780;5.710938;-0.050806;0.004833;-1.035156;0.847105;0.000964;0.218750;-1.599421;0.000086;3.632812;0.067640;-0.008507;1.109375;0.857096;-0.005993;-0.121094;-1.625015;0.005021;5.785156;0.026584;-0.000457;-2.000000;0.771048;0.011428;0.640625;-1.551824;-0.000706;3.707031;370;143;319;149;0.189697;-0.084638;-0.299256;0.174035;0.111587;-0.300232;-0.201158;-0.106769;-0.297402;-0.186602;0.134804;-0.301834
1758267957.548132181168;0.142486;0.004923;0.691406;0.813799;-0.002920;0.441406;-1.638539;0.007250;5.675781;-0.050806;0.001714;-1.035156;0.847105;0.004598;0.292969;-1.599421;-0.000025;3.671875;0.067761;0.002977;1.109375;0.857096;-0.006069;-0.046875;-1.625015;0.000013;5.750000;0.026584;-0.002214;-1.851562;0.770926;-0.007746;0.664062;-1.551824;-0.000048;3.597656;369;143;319;150;0.189679;-0.084656;-0.299254;0.174035;0.111587;-0.300232;-0.201158;-0.106751;-0.297406;-0.186596;0.134822;-0.301822
1758267957.568712234497;0.142486;0.010232;0.566406;0.813799;-0.014217;0.441406;-1.638579;-0.004659;5.750000;-0.050806;0.006201;-1.085938;0.847044;-0.009794;0.195312;-1.599421;0.000045;3.597656;0.067701;0.002890;1.109375;0.857096;-0.006711;0.046875;-1.625015;0.001796;5.824219;0.026584;-0.001145;-1.976562;0.770987;-0.001198;0.664062;-1.551865;-0.006308;3.855469;370;143;320;149;0.189679;-0.084638;-0.299256;0.174035;0.111587;-0.300232;-0.201152;-0.106787;-0.297392;-0.186602;0.134804;-0.301834
1758267957.588655948639;0.142547;0.017159;0.617188;0.813799;-0.006426;0.468750;-1.638579;-0.000290;5.675781;-0.050806;0.002186;-1.109375;0.847105;-0.007326;0.269531;-1.599380;0.006757;3.523438;0.067701;-0.000107;1.160156;0.857157;0.008043;-0.121094;-1.625015;-0.003650;5.750000;0.026644;0.014406;-2.000000;0.770987;0.001163;0.765625;-1.551824;0.000368;3.671875;370;143;319;149;0.189697;-0.084638;-0.299256;0.174028;0.111586;-0.300238;-0.201176;-0.106769;-0.297401;-0.186621;0.134822;-0.301829
1758267957.608465909958;0.142486;0.000725;0.566406;0.813860;0.006885;0.417969;-1.638539;0.010313;5.636719;-0.050806;-0.002569;-1.011719;0.847105;-0.001970;0.144531;-1.599421;-0.000067;3.523438;0.067761;0.008120;1.136719;0.857096;0.000960;-0.070312;-1.625056;-0.010330;5.824219;0.026584;-0.004846;-1.902344;0.770987;-0.005269;0.691406;-1.551824;0.000438;3.707031;369;142;319;150;0.189697;-0.084656;-0.299254;0.174035;0.111587;-0.300232;-0.201158;-0.106751;-0.297406;-0.186596;0.134804;-0.301828
1758267957.628442764282;0.142486;-0.001503;0.691406;0.813799;-0.003093;0.417969;-1.638579;-0.000054;5.562500;-0.050806;0.000809;-1.109375;0.847165;0.017872;0.171875;-1.599421;-0.001685;3.632812;0.067701;-0.000825;1.183594;0.857096;-0.009520;-0.046875;-1.625015;0.000076;5.636719;0.026644;0.006556;-1.925781;0.770987;0.000303;0.617188;-1.551824;0.006622;3.781250;369;142;320;149;0.189679;-0.084638;-0.299256;0.174028;0.111586;-0.300238;-0.201176;-0.106769;-0.297401;-0.186621;0.134804;-0.301834
1758267957.648250102997;0.142486;0.000804;0.589844;0.813860;0.017826;0.468750;-1.638579;-0.003580;5.710938;-0.050745;0.006724;-1.062500;0.847105;-0.006636;0.121094;-1.599421;-0.004841;3.632812;0.067640;-0.018483;1.109375;0.857096;-0.001486;-0.121094;-1.625056;-0.012659;5.675781;0.026584;-0.002451;-1.953125;0.770987;-0.015801;0.664062;-1.551824;0.000296;3.671875;369;142;320;150;0.189679;-0.084638;-0.299256;0.174035;0.111587;-0.300232;-0.201158;-0.106769;-0.297402;-0.186621;0.134822;-0.301829
1758267957.668455123901;0.142486;0.001875;0.617188;0.813860;0.011559;0.468750;-1.638579;0.000214;5.675781;-0.050806;-0.000206;-1.035156;0.847105;-0.005195;0.343750;-1.599421;-0.003130;3.632812;0.067761;0.002571;1.234375;0.857096;-0.008355;0.023438;-1.625015;0.002349;5.859375;0.026644;0.004099;-1.828125;0.770987;0.000198;0.765625;-1.551824;0.000289;3.781250;369;142;319;149;0.189679;-0.084638;-0.299256;0.174028;0.111568;-0.300242;-0.201158;-0.106751;-0.297406;-0.186602;0.134822;-0.301828
1758267957.688449382782;0.142425;-0.023115;0.664062;0.813860;0.008514;0.417969;-1.638579;-0.000188;5.601562;-0.050745;0.008626;-1.062500;0.847105;0.013888;0.292969;-1.599421;-0.001201;3.671875;0.067701;-0.001588;1.160156;0.857096;-0.003625;-0.046875;-1.625015;0.000468;5.898438;0.026584;-0.004013;-1.828125;0.771048;0.007436;0.640625;-1.551824;0.000093;3.671875;369;142;319;149;0.189679;-0.084638;-0.299256;0.174035;0.111587;-0.300232;-0.201158;-0.106751;-0.297406;-0.186602;0.134822;-0.301828
1758267957.708422660828;0.142486;0.000830;0.664062;0.813799;-0.006068;0.542969;-1.638579;0.000090;5.675781;-0.050745;0.009544;-1.136719;0.847105;-0.001294;0.292969;-1.599380;0.006058;3.671875;0.067701;0.002582;1.160156;0.857157;0.010308;-0.046875;-1.625015;0.001828;5.750000;0.026584;-0.000958;-1.878906;0.770987;-0.014125;0.664062;-1.551865;-0.007779;3.855469;369;143;320;149;0.189697;-0.084638;-0.299256;0.174052;0.111587;-0.300233;-0.201176;-0.106769;-0.297401;-0.186602;0.134822;-0.301828
1758267957.728631973267;0.142486;0.003360;0.640625;0.813799;-0.002192;0.492188;-1.638579;-0.000350;5.710938;-0.050745;0.011009;-1.085938;0.847105;-0.000027;0.394531;-1.599421;0.000044;3.781250;0.067701;-0.000286;1.160156;0.857096;0.008977;-0.023438;-1.625015;-0.000062;5.710938;0.026584;-0.000598;-1.976562;0.770987;-0.001944;0.691406;-1.551865;-0.005462;3.671875;369;143;319;149;0.189697;-0.084638;-0.299256;0.174035;0.111587;-0.300232;-0.201158;-0.106769;-0.297402;-0.186602;0.134804;-0.301834
1758267957.748842954636;0.142486;0.000012;0.589844;0.813799;-0.007549;0.441406;-1.638579;-0.002253;5.601562;-0.050745;0.012290;-1.011719;0.847105;0.001259;0.292969;-1.599421;-0.001371;3.597656;0.067640;-0.003639;1.136719;0.857096;-0.000426;-0.097656;-1.625015;0.002899;5.785156;0.026584;0.000016;-1.730469;0.771048;0.001341;0.640625;-1.551824;0.001582;3.781250;369;143;319;149;0.189679;-0.084638;-0.299256;0.174035;0.111587;-0.300232;-0.201158;-0.106769;-0.297402;-0.186602;0.134804;-0.301834
1758267957.768496274948;0.142425;-0.002057;0.664062;0.813799;-0.007669;0.542969;-1.638579;0.000150;5.601562;-0.050806;0.000509;-1.011719;0.847105;-0.008565;0.292969;-1.599380;0.005484;3.746094;0.067640;-0.021405;1.183594;0.857157;0.009810;-0.070312;-1.625015;-0.001952;5.898438;0.026584;-0.008557;-1.878906;0.770987;-0.000729;0.738281;-1.551824;-0.000389;3.632812;369;143;319;149;0.189679;-0.084638;-0.299256;0.174035;0.111587;-0.300232;-0.201158;-0.106769;-0.297402;-0.186627;0.134804;-0.301840
1758267957.788702487946;0.142486;-0.000646;0.664062;0.813799;-0.005489;0.441406;-1.638579;-0.000178;5.562500;-0.050806;0.000262;-1.035156;0.847105;0.001730;0.269531;-1.599421;-0.002252;3.632812;0.067761;0.015963;1.136719;0.857096;-0.005161;0.000000;-1.625015;0.000062;5.785156;0.026584;-0.008286;-1.851562;0.770987;-0.001573;0.640625;-1.551824;0.000057;3.632812;369;143;319;149;0.189679;-0.084638;-0.299256;0.174052;0.111587;-0.300233;-0.201152;-0.106787;-0.297392;-0.186602;0.134804;-0.301834
1758267957.808451414108;0.142486;0.000176;0.542969;0.813799;-0.006644;0.441406;-1.638579;0.000837;5.601562;-0.050806;0.000504;-1.109375;0.847105;-0.000611;0.171875;-1.599421;0.000098;3.632812;0.067640;-0.004563;1.160156;0.857096;-0.000728;0.000000;-1.625015;0.001265;5.750000;0.026644;0.008222;-1.828125;0.770987;-0.008366;0.640625;-1.551824;0.001929;3.707031;369;143;319;149;0.189697;-0.084638;-0.299256;0.174035;0.111587;-0.300232;-0.201158;-0.106787;-0.297398;-0.186621;0.134822;-0.301829
1758267957.829015493393;0.142486;0.000601;0.589844;0.813799;-0.007410;0.589844;-1.638579;-0.000265;5.636719;-0.050806;-0.004618;-1.062500;0.847105;0.000316;0.343750;-1.599421;-0.000397;3.632812;0.067640;-0.007623;1.085938;0.857096;-0.000249;-0.121094;-1.625015;0.004774;5.898438;0.026584;-0.001246;-1.953125;0.771048;-0.000438;0.714844;-1.551824;-0.000322;3.671875;369;143;319;149;0.189679;-0.084638;-0.299256;0.174035;0.111587;-0.300232;-0.201158;-0.106787;-0.297398;-0.186621;0.134804;-0.301834
1758267957.848543643951;0.142425;-0.014882;0.617188;0.813799;-0.012901;0.492188;-1.638579;0.000534;5.601562;-0.050806;-0.003618;-1.085938;0.847105;0.004523;0.292969;-1.599421;-0.000089;3.523438;0.067640;-0.016387;1.085938;0.857096;-0.001086;0.000000;-1.625015;0.002027;5.824219;0.026644;0.010061;-1.976562;0.771048;0.002222;0.640625;-1.551824;-0.000264;3.707031;369;142;319;149;0.189697;-0.084638;-0.299256;0.174035;0.111587;-0.300232;-0.201140;-0.106787;-0.297399;-0.186602;0.134804;-0.301834
1758267957.868444442749;0.142547;0.019072;0.640625;0.813799;-0.004366;0.542969;-1.638579;-0.000220;5.636719;-0.050745;0.012849;-1.011719;0.847165;0.025599;0.292969;-1.599421;-0.003739;3.523438;0.067701;0.003039;1.109375;0.857157;0.010367;-0.023438;-1.625015;0.000011;5.785156;0.026644;0.018831;-1.878906;0.771048;0.000612;0.664062;-1.551824;0.000353;3.632812;369;143;319;149;0.189679;-0.084638;-0.299256;0.174035;0.111587;-0.300232;-0.201152;-0.106787;-0.297392;-0.186602;0.134804;-0.301834
1758267957.888809680939;0.142486;0.001713;0.617188;0.813799;-0.005176;0.468750;-1.638579;0.000133;5.675781;-0.050806;-0.000104;-0.988281;0.847105;0.000992;0.269531;-1.599421;-0.000383;3.707031;0.067701;-0.004286;1.160156;0.857096;-0.003310;-0.023438;-1.625015;0.003451;5.675781;0.026584;-0.001052;-1.878906;0.770987;-0.010866;0.691406;-1.551824;-0.000339;3.707031;369;142;319;149;0.189679;-0.084638;-0.299256;0.174035;0.111587;-0.300232;-0.201152;-0.106787;-0.297392;-0.186602;0.134822;-0.301828
1758267957.908466339111;0.142486;0.004984;0.589844;0.813860;0.005298;0.367188;-1.638579;-0.001775;5.636719;-0.050806;0.000722;-0.988281;0.847105;0.000880;0.269531;-1.599421;-0.004446;3.707031;0.067761;0.008123;1.183594;0.857157;0.001698;-0.070312;-1.625015;0.001365;5.636719;0.026584;-0.000795;-1.828125;0.770987;-0.004075;0.589844;-1.551824;-0.000113;3.671875;369;142;319;149;0.189697;-0.084638;-0.299256;0.174035;0.111587;-0.300232;-0.201176;-0.106751;-0.297405;-0.186602;0.134822;-0.301828
1758267957.928575277328;0.142486;-0.002411;0.664062;0.813860;0.013930;0.441406;-1.638579;0.000051;5.675781;-0.050806;-0.000425;-1.062500;0.847105;-0.006165;0.292969;-1.599380;0.010400;3.671875;0.067701;0.000629;1.285156;0.857096;-0.004024;-0.023438;-1.625015;0.006160;5.675781;0.026644;0.017884;-2.027344;0.770987;-0.012492;0.664062;-1.551824;0.000941;3.929688;369;143;319;149;0.189697;-0.084638;-0.299256;0.174035;0.111587;-0.300232;-0.201158;-0.106769;-0.297402;-0.186621;0.134804;-0.301834
1758267957.948879957199;0.142486;0.004705;0.617188;0.813799;-0.011282;0.492188;-1.638579;-0.000832;5.601562;-0.050866;-0.010698;-1.085938;0.847105;0.000511;0.320312;-1.599421;-0.000658;3.632812;0.067640;-0.005487;1.109375;0.857157;0.010035;0.000000;-1.625015;0.001679;5.785156;0.026584;-0.001677;-1.902344;0.771048;0.004892;0.691406;-1.551824;-0.000185;3.781250;369;143;319;149;0.189697;-0.084638;-0.299256;0.174035;0.111587;-0.300232;-0.201158;-0.106769;-0.297402;-0.186621;0.134804;-0.301834
1758267957.968449831009;0.142486;0.001661;0.589844;0.813860;0.011594;0.542969;-1.638579;0.000044;5.675781;-0.050745;0.012277;-1.062500;0.847165;0.002288;0.320312;-1.599421;0.001869;3.523438;0.067701;0.000211;1.210938;0.857157;0.010050;-0.046875;-1.625015;0.001344;5.750000;0.026584;0.000020;-1.804688;0.770987;-0.008963;0.617188;-1.551824;-0.000051;3.597656;369;142;319;149;0.189679;-0.084638;-0.299256;0.174017;0.111587;-0.300231;-0.201158;-0.106769;-0.297402;-0.186621;0.134822;-0.301829
1758267957.988151788712;0.142486;0.000404;0.640625;0.813799;-0.013487;0.468750;-1.638579;-0.000115;5.636719;-0.050806;-0.000533;-0.988281;0.847105;0.000499;0.292969;-1.599421;-0.000044;3.558594;0.067701;-0.007155;1.183594;0.857157;0.000986;0.023438;-1.625015;0.003925;5.785156;0.026584;-0.004614;-1.902344;0.771048;0.000507;0.691406;-1.551824;0.007859;3.632812;369;143;319;149;0.189679;-0.084638;-0.299256;0.174035;0.111587;-0.300232;-0.201158;-0.106769;-0.297402;-0.186639;0.134804;-0.301834
1758267958.008161544800;0.142486;-0.000719;0.691406;0.813799;-0.001673;0.492188;-1.638579;0.000220;5.710938;-0.050806;0.000538;-1.035156;0.847105;0.003289;0.292969;-1.599421;0.000048;3.671875;0.067761;0.012170;1.183594;0.857096;-0.014879;0.000000;-1.625056;-0.010183;5.601562;0.026584;-0.000132;-1.828125;0.771048;-0.000334;0.589844;-1.551824;0.003570;3.746094;369;143;319;150;0.189679;-0.084656;-0.299254;0.174035;0.111569;-0.300236;-0.201176;-0.106769;-0.297401;-0.186621;0.134804;-0.301834
1758267958.028187513351;0.142486;0.001990;0.664062;0.813860;0.006003;0.515625;-1.638579;0.000153;5.601562;-0.050806;0.000004;-1.062500;0.847165;0.006918;0.292969;-1.599421;-0.000750;3.781250;0.067701;0.004270;1.109375;0.857157;0.012544;0.000000;-1.625015;0.006153;5.859375;0.026584;-0.000198;-1.902344;0.771048;0.000218;0.664062;-1.551824;0.001048;3.781250;369;143;319;149;0.189679;-0.084656;-0.299254;0.174017;0.111587;-0.300231;-0.201170;-0.106769;-0.297395;-0.186621;0.134804;-0.301834
1758267958.047953128815;0.142486;-0.000041;0.617188;0.813799;-0.014994;0.417969;-1.638579;0.000228;5.675781;-0.050745;0.003448;-0.988281;0.847165;0.001819;0.246094;-1.599421;-0.000958;3.746094;0.067640;-0.003647;1.136719;0.857096;-0.002288;-0.097656;-1.625015;0.000690;5.824219;0.026644;0.008148;-1.878906;0.771108;0.007064;0.664062;-1.551784;0.002978;3.746094;369;142;319;149;0.189679;-0.084638;-0.299256;0.174028;0.111605;-0.300234;-0.201158;-0.106787;-0.297398;-0.186627;0.134804;-0.301840
1758267958.068145036697;0.142486;0.001554;0.589844;0.813860;0.000417;0.468750;-1.638579;0.000208;5.675781;-0.050806;-0.005331;-1.136719;0.847165;0.003877;0.343750;-1.599421;0.000081;3.671875;0.067640;-0.007545;1.160156;0.857096;-0.000802;-0.046875;-1.625015;0.000490;5.785156;0.026584;0.000101;-1.804688;0.771048;-0.000901;0.589844;-1.551824;-0.008296;3.707031;370;143;319;150;0.189679;-0.084638;-0.299256;0.174035;0.111587;-0.300232;-0.201176;-0.106787;-0.297398;-0.186639;0.134804;-0.301834
1758267958.088045835495;0.142486;-0.000859;0.617188;0.813860;0.000670;0.566406;-1.638579;-0.000165;5.601562;-0.050806;-0.001569;-1.109375;0.847105;-0.006352;0.292969;-1.599380;0.010497;3.781250;0.067701;-0.000372;1.136719;0.857096;-0.005515;-0.023438;-1.625015;0.000009;5.750000;0.026584;-0.001496;-1.878906;0.770987;-0.013649;0.617188;-1.551824;-0.000002;3.781250;369;143;318;149;0.189697;-0.084638;-0.299256;0.174017;0.111587;-0.300231;-0.201158;-0.106769;-0.297402;-0.186621;0.134804;-0.301834
1758267958.107967376709;0.142486;0.005001;0.664062;0.813799;-0.009891;0.492188;-1.638579;-0.000185;5.636719;-0.050806;-0.002852;-1.062500;0.847165;0.006578;0.171875;-1.599421;-0.000275;3.632812;0.067701;0.010588;1.183594;0.857096;-0.001436;-0.097656;-1.625015;0.005491;5.933594;0.026584;-0.000834;-1.976562;0.771048;0.001457;0.640625;-1.551865;-0.009648;3.671875;369;142;319;149;0.189679;-0.084638;-0.299256;0.174035;0.111587;-0.300232;-0.201158;-0.106787;-0.297398;-0.186645;0.134822;-0.301835
1758267958.127975463867;0.142486;0.000704;0.589844;0.813860;0.003120;0.492188;-1.638579;-0.000447;5.636719;-0.050745;-0.001354;-1.109375;0.847105;-0.015662;0.292969;-1.599421;-0.003186;3.632812;0.067640;-0.007109;1.210938;0.857096;-0.008224;-0.023438;-1.625015;-0.000333;5.710938;0.026584;-0.000158;-1.804688;0.771048;-0.002933;0.566406;-1.551824;-0.001338;3.894531;369;143;319;149;0.189697;-0.084638;-0.299256;0.174017;0.111605;-0.300227;-0.201158;-0.106787;-0.297398;-0.186621;0.134804;-0.301834
1758267958.147893667221;0.142425;-0.007388;0.640625;0.813799;-0.010901;0.492188;-1.638579;0.002786;5.636719;-0.050806;-0.015181;-0.988281;0.847105;-0.002987;0.269531;-1.599421;-0.000205;3.671875;0.067701;0.000210;1.210938;0.857157;0.005828;-0.070312;-1.625015;0.006439;5.636719;0.026584;-0.003764;-1.902344;0.771048;0.002439;0.664062;-1.551865;-0.007882;3.968750;370;142;319;149;0.189679;-0.084638;-0.299256;0.174035;0.111605;-0.300228;-0.201170;-0.106769;-0.297395;-0.186621;0.134804;-0.301834
1758267958.168188095093;0.142486;0.000181;0.589844;0.813799;-0.004024;0.441406;-1.638579;-0.000316;5.562500;-0.050806;-0.015256;-1.011719;0.847165;0.010134;0.292969;-1.599421;-0.004225;3.597656;0.067640;-0.008648;1.160156;0.857096;-0.009487;0.046875;-1.625015;0.002198;5.601562;0.026584;-0.000342;-1.828125;0.771048;0.000544;0.589844;-1.551824;-0.000286;3.671875;370;142;319;149;0.189679;-0.084638;-0.299256;0.174017;0.111605;-0.300227;-0.201158;-0.106769;-0.297402;-0.186621;0.134822;-0.301829
1758267958.187952995300;0.142486;-0.000002;0.640625;0.813860;0.009630;0.441406;-1.638579;0.000399;5.636719;-0.050806;-0.013094;-1.035156;0.847105;-0.004241;0.269531;-1.599421;0.000185;3.558594;0.067701;0.003587;1.234375;0.857096;-0.002740;-0.097656;-1.625015;0.003672;5.750000;0.026584;-0.000066;-1.753906;0.771048;-0.008369;0.812500;-1.551824;-0.000712;3.781250;369;143;319;149;0.189697;-0.084638;-0.299256;0.174017;0.111605;-0.300227;-0.201176;-0.106769;-0.297401;-0.186621;0.134804;-0.301834
1758267958.208796501160;0.142486;0.000050;0.589844;0.813860;0.003307;0.542969;-1.638579;-0.000066;5.601562;-0.050745;0.000731;-1.109375;0.847165;0.012794;0.195312;-1.599421;0.000230;3.632812;0.067640;-0.009876;1.160156;0.857096;-0.007088;-0.046875;-1.625056;-0.012763;5.601562;0.026644;0.014845;-1.828125;0.771048;-0.000403;0.617188;-1.551824;-0.000418;3.781250;369;142;319;150;0.189679;-0.084638;-0.299256;0.174017;0.111587;-0.300231;-0.201176;-0.106769;-0.297401;-0.186602;0.134804;-0.301834
1758267958.228324651718;0.142486;0.000886;0.589844;0.813860;0.007801;0.515625;-1.638579;0.000163;5.601562;-0.050806;-0.003597;-0.937500;0.847165;0.004410;0.292969;-1.599421;-0.000499;3.523438;0.067640;-0.003067;1.085938;0.857096;-0.003266;-0.046875;-1.625015;0.001781;5.859375;0.026584;-0.007418;-1.851562;0.771048;0.000742;0.691406;-1.551824;-0.000460;3.632812;369;143;318;149;0.189679;-0.084638;-0.299256;0.174017;0.111605;-0.300227;-0.201176;-0.106787;-0.297398;-0.186621;0.134804;-0.301834
1758267958.248558521271;0.142425;-0.014873;0.617188;0.813860;-0.000883;0.417969;-1.638579;-0.000032;5.824219;-0.050745;0.012096;-1.085938;0.847165;0.001813;0.292969;-1.599380;0.009039;3.558594;0.067701;-0.006508;1.136719;0.857157;0.013588;-0.023438;-1.625015;-0.000040;5.750000;0.026644;0.013741;-1.828125;0.771048;-0.003363;0.664062;-1.551824;0.000690;3.746094;369;142;319;149;0.189679;-0.084638;-0.299256;0.174035;0.111605;-0.300228;-0.201158;-0.106769;-0.297402;-0.186627;0.134804;-0.301840
1758267958.268733978271;0.142486;-0.000485;0.515625;0.813860;0.005103;0.515625;-1.638539;0.012743;5.636719;-0.050745;-0.001796;-1.136719;0.847165;0.002839;0.343750;-1.599421;0.000132;3.671875;0.067701;-0.001789;1.234375;0.857157;0.006832;-0.070312;-1.625015;0.000083;5.785156;0.026584;-0.001643;-1.976562;0.771048;-0.000186;0.691406;-1.551824;-0.007128;3.746094;370;142;318;149;0.189679;-0.084638;-0.299256;0.174017;0.111605;-0.300227;-0.201170;-0.106769;-0.297395;-0.186627;0.134804;-0.301840
1758267958.288374900818;0.142486;0.000425;0.589844;0.813860;0.007557;0.468750;-1.638579;-0.000007;5.601562;-0.050745;0.002672;-1.109375;0.847105;-0.009208;0.171875;-1.599421;-0.000046;3.558594;0.067701;0.000017;1.183594;0.857157;0.000257;-0.046875;-1.625015;-0.000021;5.710938;0.026584;-0.000071;-1.976562;0.771048;0.013525;0.738281;-1.551824;-0.001432;3.746094;369;143;318;149;0.189697;-0.084638;-0.299256;0.174028;0.111605;-0.300234;-0.201170;-0.106769;-0.297395;-0.186621;0.134822;-0.301829
1758267958.308895349503;0.142486;0.000160;0.589844;0.813860;0.010099;0.542969;-1.638579;0.001877;5.601562;-0.050806;-0.006373;-0.988281;0.847105;-0.006720;0.320312;-1.599421;-0.000106;3.671875;0.067701;0.011283;1.136719;0.857096;-0.005498;-0.070312;-1.625015;0.000155;5.859375;0.026584;-0.007715;-1.878906;0.771048;0.000228;0.589844;-1.551824;0.001131;3.597656;370;142;318;149;0.189697;-0.084638;-0.299256;0.174017;0.111587;-0.300231;-0.201176;-0.106787;-0.297398;-0.186615;0.134804;-0.301828
1758267958.328476428986;0.142486;0.000689;0.640625;0.813799;-0.012783;0.441406;-1.638579;0.000067;5.562500;-0.050745;0.009305;-0.988281;0.847165;0.010379;0.394531;-1.599380;0.008852;3.558594;0.067701;0.002468;1.183594;0.857096;-0.014268;-0.046875;-1.625015;-0.000176;5.710938;0.026584;-0.005409;-1.925781;0.771048;0.000385;0.691406;-1.551865;-0.005045;3.671875;370;142;319;149;0.189679;-0.084638;-0.299256;0.174017;0.111587;-0.300231;-0.201170;-0.106769;-0.297395;-0.186621;0.134804;-0.301834
1758267958.348469734192;0.142486;0.000347;0.664062;0.813799;-0.009832;0.468750;-1.638579;-0.001312;5.636719;-0.050806;-0.000159;-1.035156;0.847105;0.000136;0.343750;-1.599421;0.000622;3.707031;0.067640;-0.014591;1.183594;0.857096;-0.009759;-0.070312;-1.625015;-0.001744;5.785156;0.026644;0.014749;-1.976562;0.771048;-0.006536;0.617188;-1.551784;0.009146;3.746094;370;143;319;149;0.189679;-0.084638;-0.299256;0.174028;0.111586;-0.300238;-0.201158;-0.106787;-0.297398;-0.186627;0.134804;-0.301840
1758267958.368400812149;0.142486;0.003100;0.640625;0.813860;0.001008;0.617188;-1.638579;0.000014;5.636719;-0.050806;-0.002088;-0.988281;0.847105;-0.012672;0.292969;-1.599421;-0.000061;3.597656;0.067701;0.003078;1.085938;0.857157;0.004672;0.000000;-1.625015;0.004852;5.933594;0.026584;-0.000384;-1.851562;0.771048;0.001716;0.691406;-1.551824;-0.002701;3.707031;369;142;318;149;0.189697;-0.084620;-0.299258;0.174035;0.111587;-0.300232;-0.201176;-0.106787;-0.297398;-0.186621;0.134804;-0.301834
1758267958.388108253479;0.142486;0.004522;0.617188;0.813799;-0.011945;0.492188;-1.638579;-0.000199;5.601562;-0.050806;0.000252;-0.960938;0.847165;0.000033;0.343750;-1.599421;-0.001214;3.597656;0.067640;-0.004127;1.085938;0.857157;0.010832;0.000000;-1.625056;-0.011841;5.710938;0.026584;-0.007861;-1.878906;0.770987;-0.007645;0.589844;-1.551824;0.000926;3.707031;369;143;318;149;0.189679;-0.084638;-0.299256;0.174035;0.111587;-0.300232;-0.201158;-0.106769;-0.297402;-0.186602;0.134804;-0.301834
1758267958.408436059952;0.142486;0.000174;0.664062;0.813799;-0.008181;0.367188;-1.638579;-0.004201;5.601562;-0.050806;-0.008158;-0.988281;0.847165;0.008220;0.269531;-1.599461;-0.010406;3.597656;0.067701;0.009690;1.109375;0.857157;0.004933;-0.070312;-1.625015;-0.000095;5.750000;0.026584;-0.008127;-1.851562;0.771048;0.002784;0.691406;-1.551824;-0.000720;3.894531;369;142;318;149;0.189697;-0.084638;-0.299256;0.174035;0.111605;-0.300228;-0.201152;-0.106769;-0.297396;-0.186627;0.134804;-0.301840
1758267958.428474187851;0.142486;0.000442;0.664062;0.813860;0.001938;0.441406;-1.638579;-0.000089;5.601562;-0.050745;0.017257;-1.035156;0.847165;0.011312;0.320312;-1.599421;-0.000546;3.597656;0.067640;-0.010949;1.109375;0.857096;-0.005689;-0.121094;-1.625015;0.003489;5.710938;0.026584;0.000005;-1.878906;0.770987;-0.012907;0.664062;-1.551784;0.010440;3.632812;369;142;318;149;0.189679;-0.084638;-0.299256;0.174017;0.111605;-0.300227;-0.201176;-0.106787;-0.297398;-0.186602;0.134804;-0.301834
1758267958.448631525040;0.142486;0.000519;0.617188;0.813860;0.000560;0.441406;-1.638579;0.000088;5.562500;-0.050806;0.000891;-1.035156;0.847105;-0.003940;0.515625;-1.599421;-0.004467;3.632812;0.067761;0.019982;1.234375;0.857096;-0.008010;-0.121094;-1.625015;0.000294;5.636719;0.026644;0.013220;-1.902344;0.771048;0.000423;0.691406;-1.551824;-0.000880;3.671875;369;143;318;149;0.189697;-0.084638;-0.299256;0.174017;0.111587;-0.300231;-0.201170;-0.106769;-0.297395;-0.186621;0.134804;-0.301834
1758267958.468801498413;0.142486;0.000002;0.589844;0.813799;-0.007902;0.417969;-1.638579;-0.000338;5.675781;-0.050806;0.000203;-1.011719;0.847105;-0.003539;0.246094;-1.599421;-0.003329;3.746094;0.067640;-0.008248;1.109375;0.857157;0.003414;-0.070312;-1.625056;-0.007826;5.750000;0.026584;-0.002944;-1.804688;0.771048;-0.000142;0.738281;-1.551824;-0.000092;3.671875;369;143;318;149;0.189697;-0.084638;-0.299256;0.174035;0.111605;-0.300228;-0.201182;-0.106768;-0.297407;-0.186602;0.134804;-0.301834
1758267958.488472938538;0.142486;0.006645;0.617188;0.813860;0.002459;0.492188;-1.638579;0.000025;5.675781;-0.050745;0.008546;-1.136719;0.847165;0.014544;0.367188;-1.599421;-0.004506;3.632812;0.067701;0.003180;1.183594;0.857157;0.003056;0.000000;-1.625015;0.002752;5.972656;0.026584;0.000199;-1.878906;0.771108;0.003880;0.789062;-1.551824;-0.000892;3.746094;369;142;318;149;0.189679;-0.084638;-0.299256;0.174017;0.111587;-0.300231;-0.201158;-0.106769;-0.297402;-0.186621;0.134804;-0.301834
1758267958.508215665817;0.142486;-0.003054;0.664062;0.813860;0.002854;0.492188;-1.638579;0.001340;5.636719;-0.050745;0.000805;-1.011719;0.847226;0.020207;0.343750;-1.599421;-0.002773;3.707031;0.067640;-0.003114;1.085938;0.857096;-0.003859;-0.070312;-1.625015;0.000197;5.675781;0.026584;-0.000926;-1.878906;0.771108;0.006617;0.664062;-1.551824;-0.000244;3.707031;369;142;318;149;0.189679;-0.084638;-0.299256;0.174017;0.111587;-0.300231;-0.201158;-0.106769;-0.297402;-0.186621;0.134804;-0.301834
1758267958.527944326401;0.142486;-0.005073;0.691406;0.813799;-0.018909;0.417969;-1.638579;-0.000268;5.562500;-0.050745;0.007440;-1.062500;0.847165;-0.000841;0.417969;-1.599380;0.007443;3.632812;0.067701;0.000375;1.160156;0.857157;-0.000016;0.000000;-1.625056;-0.006295;5.750000;0.026584;-0.010932;-1.925781;0.771048;-0.000461;0.664062;-1.551824;-0.000321;3.746094;369;143;318;149;0.189679;-0.084638;-0.299256;0.174010;0.111586;-0.300237;-0.201176;-0.106787;-0.297398;-0.186621;0.134804;-0.301834
1758267958.548141479492;0.142486;0.000039;0.617188;0.813860;-0.002572;0.492188;-1.638579;-0.000250;5.675781;-0.050806;-0.016001;-1.062500;0.847165;0.000777;0.292969;-1.599421;-0.001718;3.671875;0.067640;-0.003245;1.109375;0.857157;0.016290;-0.046875;-1.625015;0.000364;5.750000;0.026584;-0.005428;-1.828125;0.771048;-0.000947;0.714844;-1.551824;-0.000167;3.707031;370;142;318;149;0.189679;-0.084638;-0.299256;0.174017;0.111605;-0.300227;-0.201170;-0.106787;-0.297392;-0.186639;0.134822;-0.301829
1758267958.568103551865;0.142486;0.000439;0.765625;0.813860;-0.001196;0.468750;-1.638579;-0.000041;5.675781;-0.050745;0.005409;-0.914062;0.847226;0.008053;0.320312;-1.599421;-0.001011;3.597656;0.067701;-0.000712;1.332031;0.857157;0.000073;0.023438;-1.625056;-0.006446;5.898438;0.026584;-0.001960;-1.902344;0.771048;-0.012083;0.691406;-1.551824;-0.001117;3.781250;369;142;318;149;0.189697;-0.084638;-0.299256;0.174017;0.111605;-0.300227;-0.201170;-0.106769;-0.297395;-0.186621;0.134804;-0.301834
1758267958.587945938110;0.142486;-0.002434;0.566406;0.813860;-0.000495;0.515625;-1.638620;-0.008856;5.675781;-0.050745;0.000803;-0.988281;0.847165;-0.001352;0.320312;-1.599421;-0.000193;3.558594;0.067640;-0.004320;1.109375;0.857157;0.006246;-0.070312;-1.625015;0.001826;5.601562;0.026584;-0.002928;-1.953125;0.771048;-0.007318;0.738281;-1.551824;-0.007477;3.781250;370;142;318;149;0.189679;-0.084638;-0.299256;0.174017;0.111587;-0.300231;-0.201176;-0.106787;-0.297398;-0.186639;0.134804;-0.301834
1758267958.608803987503;0.142486;0.000659;0.664062;0.813860;0.000415;0.492188;-1.638579;-0.000069;5.453125;-0.050745;0.002468;-0.988281;0.847165;0.001765;0.343750;-1.599380;0.010491;3.597656;0.067640;-0.009723;1.183594;0.857157;-0.003592;-0.070312;-1.625015;-0.000112;5.785156;0.026584;-0.002227;-1.925781;0.771108;0.004029;0.589844;-1.551824;-0.002222;3.855469;370;142;318;148;0.189679;-0.084638;-0.299256;0.174017;0.111587;-0.300231;-0.201170;-0.106769;-0.297395;-0.186645;0.134804;-0.301840
1758267958.628371953964;0.142486;-0.000090;0.566406;0.813860;0.000172;0.441406;-1.638579;0.000624;5.562500;-0.050745;0.001238;-1.035156;0.847226;0.004252;0.292969;-1.599421;-0.000555;3.632812;0.067640;-0.002358;1.136719;0.857157;-0.000448;0.023438;-1.625015;0.001378;5.750000;0.026584;-0.003077;-1.953125;0.771048;-0.012546;0.691406;-1.551824;-0.000805;3.597656;369;143;318;149;0.189679;-0.084638;-0.299256;0.173992;0.111605;-0.300232;-0.201170;-0.106787;-0.297392;-0.186621;0.134822;-0.301829
1758267958.648482561111;0.142486;-0.001207;0.714844;0.813860;0.000248;0.468750;-1.638579;0.005077;5.527344;-0.050745;0.000137;-1.011719;0.847226;-0.000353;0.171875;-1.599421;0.000096;3.746094;0.067640;-0.005745;1.136719;0.857157;0.000845;0.000000;-1.625015;0.000343;5.785156;0.026584;-0.000953;-1.878906;0.771108;0.010377;0.738281;-1.551784;0.008748;3.820312;369;143;318;149;0.189679;-0.084638;-0.299256;0.173999;0.111605;-0.300227;-0.201170;-0.106769;-0.297395;-0.186645;0.134804;-0.301840
1758267958.668480634689;0.142486;-0.004994;0.589844;0.813860;0.006222;0.515625;-1.638579;0.005764;5.636719;-0.050745;-0.007299;-1.011719;0.847226;0.002390;0.417969;-1.599380;0.005282;3.671875;0.067579;-0.020325;1.136719;0.857157;-0.002726;-0.023438;-1.625056;-0.012886;5.636719;0.026584;-0.000201;-1.828125;0.771108;0.001665;0.664062;-1.551784;0.007788;3.746094;369;142;318;149;0.189685;-0.084639;-0.299250;0.173999;0.111605;-0.300227;-0.201193;-0.106787;-0.297397;-0.186639;0.134804;-0.301834
1758267958.688156366348;0.142486;0.000143;0.542969;0.813860;0.000863;0.542969;-1.638620;-0.007033;5.636719;-0.050745;-0.011893;-1.136719;0.847226;0.001365;0.343750;-1.599380;0.010415;3.707031;0.067640;-0.002735;1.062500;0.857157;0.000257;0.023438;-1.625015;0.006375;5.710938;0.026644;0.017595;-1.902344;0.771048;-0.012354;0.617188;-1.551824;-0.001976;3.746094;369;143;318;149;0.189679;-0.084638;-0.299256;0.173992;0.111605;-0.300232;-0.201170;-0.106787;-0.297392;-0.186621;0.134804;-0.301834
1758267958.708237409592;0.142486;0.001466;0.640625;0.813860;0.002357;0.468750;-1.638579;0.003185;5.601562;-0.050806;-0.009166;-1.011719;0.847226;0.001496;0.246094;-1.599421;-0.000259;3.597656;0.067640;-0.005011;1.257812;0.857157;0.000508;-0.121094;-1.625015;-0.000096;5.785156;0.026584;-0.007027;-1.976562;0.771108;0.003647;0.617188;-1.551824;-0.002032;3.707031;369;142;318;149;0.189679;-0.084638;-0.299256;0.173999;0.111605;-0.300227;-0.201176;-0.106787;-0.297398;-0.186627;0.134804;-0.301840
1758267958.728524684906;0.142486;-0.001084;0.617188;0.813860;0.000369;0.542969;-1.638579;0.000055;5.562500;-0.050806;-0.012095;-1.062500;0.847226;0.016327;0.320312;-1.599421;-0.008565;3.671875;0.067701;-0.000658;1.136719;0.857157;-0.009087;0.000000;-1.625056;-0.007167;5.785156;0.026644;0.012702;-1.878906;0.771048;-0.005882;0.664062;-1.551824;-0.001543;3.781250;369;142;318;149;0.189679;-0.084638;-0.299256;0.174010;0.111605;-0.300233;-0.201176;-0.106769;-0.297401;-0.186627;0.134822;-0.301835
1758267958.748881578445;0.142425;-0.004862;0.664062;0.813860;0.000533;0.417969;-1.638579;-0.000301;5.527344;-0.050806;0.000475;-1.160156;0.847165;0.000947;0.097656;-1.599421;0.000582;3.746094;0.067761;0.006951;1.160156;0.857217;-0.000001;-0.070312;-1.625056;-0.012751;5.824219;0.026584;-0.009587;-1.878906;0.771108;0.013848;0.738281;-1.551824;-0.001817;3.707031;369;142;318;149;0.189679;-0.084638;-0.299256;0.174017;0.111587;-0.300231;-0.201176;-0.106769;-0.297401;-0.186621;0.134822;-0.301829
1758267958.768480777740;0.142486;-0.000425;0.640625;0.813860;-0.000337;0.492188;-1.638579;0.000101;5.675781;-0.050745;0.004597;-1.136719;0.847165;-0.002710;0.441406;-1.599380;0.008771;3.597656;0.067701;-0.001544;1.234375;0.857157;-0.000230;0.023438;-1.625015;0.001606;5.710938;0.026584;-0.014017;-1.878906;0.771048;-0.017659;0.714844;-1.551824;0.000018;3.632812;369;143;318;149;0.189679;-0.084638;-0.299256;0.173999;0.111605;-0.300227;-0.201170;-0.106787;-0.297392;-0.186645;0.134804;-0.301840
1758267958.788836717606;0.142486;-0.000369;0.640625;0.813860;-0.000143;0.441406;-1.638579;0.002782;5.601562;-0.050806;-0.006874;-1.062500;0.847226;0.000850;0.367188;-1.599421;-0.002066;3.523438;0.067701;0.006181;1.136719;0.857157;-0.000183;0.000000;-1.625015;0.007987;5.785156;0.026584;-0.001124;-1.878906;0.771048;-0.004089;0.617188;-1.551824;-0.000450;3.632812;370;143;318;149;0.189679;-0.084638;-0.299256;0.174017;0.111587;-0.300231;-0.201176;-0.106769;-0.297401;-0.186639;0.134804;-0.301834
1758267958.808476924896;0.142486;-0.000324;0.640625;0.813860;-0.006437;0.542969;-1.638579;0.000145;5.601562;-0.050745;0.004660;-1.136719;0.847226;0.002178;0.269531;-1.599380;0.001619;3.746094;0.067701;-0.000126;1.085938;0.857157;-0.006537;-0.023438;-1.625015;0.000642;5.785156;0.026644;0.014636;-1.851562;0.771108;0.008855;0.664062;-1.551784;0.008697;3.746094;370;142;318;148;0.189679;-0.084638;-0.299256;0.173999;0.111605;-0.300227;-0.201176;-0.106769;-0.297401;-0.186645;0.134822;-0.301835
1758267958.828584432602;0.142486;0.000019;0.640625;0.813921;0.010999;0.441406;-1.638579;-0.000017;5.488281;-0.050806;-0.003116;-0.960938;0.847165;-0.004316;0.343750;-1.599421;-0.000070;3.597656;0.067761;0.012140;1.085938;0.857217;0.004119;0.000000;-1.625015;0.000675;5.898438;0.026584;-0.006623;-1.851562;0.771048;-0.008494;0.566406;-1.551824;-0.000793;3.894531;369;142;318;149;0.189662;-0.084638;-0.299256;0.173999;0.111587;-0.300231;-0.201193;-0.106769;-0.297400;-0.186639;0.134822;-0.301829
1758267958.848380804062;0.142486;0.000254;0.664062;0.813860;0.005458;0.468750;-1.638579;0.003682;5.636719;-0.050806;0.010949;-1.011719;0.847226;0.015791;0.320312;-1.599380;0.010787;3.632812;0.067640;-0.007476;1.183594;0.857157;-0.002540;-0.070312;-1.625015;0.002519;5.675781;0.026584;-0.000522;-1.953125;0.771108;0.001206;0.738281;-1.551824;-0.001900;3.707031;370;142;318;148;0.189679;-0.084638;-0.299256;0.173999;0.111605;-0.300227;-0.201176;-0.106769;-0.297401;-0.186639;0.134804;-0.301834
1758267958.868272066116;0.142486;-0.000299;0.617188;0.813860;-0.000231;0.367188;-1.638579;0.000446;5.562500;-0.050745;0.005946;-1.085938;0.847226;0.006313;0.269531;-1.599421;-0.004077;3.632812;0.067701;-0.003897;1.062500;0.857217;0.012033;-0.121094;-1.625015;0.001825;5.898438;0.026584;-0.009308;-1.851562;0.771048;-0.002079;0.617188;-1.551784;0.010394;3.671875;369;143;318;149;0.189679;-0.084638;-0.299256;0.173999;0.111605;-0.300227;-0.201176;-0.106769;-0.297401;-0.186621;0.134804;-0.301834
1758267958.888143301010;0.142486;-0.000677;0.589844;0.813860;-0.002841;0.468750;-1.638579;0.002854;5.601562;-0.050745;-0.006636;-0.886719;0.847226;0.008047;0.292969;-1.599421;0.000198;3.707031;0.067701;0.000364;1.136719;0.857217;0.004297;0.000000;-1.625056;-0.012618;5.898438;0.026584;-0.000614;-1.828125;0.771048;-0.003112;0.812500;-1.551824;-0.007568;3.781250;370;142;318;149;0.189679;-0.084638;-0.299256;0.173999;0.111605;-0.300227;-0.201187;-0.106769;-0.297394;-0.186621;0.134804;-0.301834
1758267958.908194541931;0.142486;-0.000787;0.691406;0.813921;0.014975;0.441406;-1.638579;0.000008;5.601562;-0.050745;-0.002665;-1.062500;0.847165;-0.012723;0.121094;-1.599421;-0.000364;3.707031;0.067701;0.007361;1.210938;0.857217;0.006808;0.046875;-1.625015;0.006934;5.675781;0.026584;-0.003976;-1.902344;0.771048;-0.003956;0.738281;-1.551784;0.007685;3.781250;369;142;318;149;0.189679;-0.084638;-0.299256;0.174017;0.111605;-0.300227;-0.201176;-0.106769;-0.297401;-0.186639;0.134804;-0.301834
1758267958.928428173065;0.142486;-0.000604;0.640625;0.813860;-0.005498;0.468750;-1.638620;-0.012554;5.562500;-0.050745;0.009560;-1.035156;0.847165;-0.008260;0.246094;-1.599421;-0.001054;3.781250;0.067701;0.004368;1.109375;0.857157;-0.003858;0.046875;-1.625015;0.000560;5.675781;0.026584;0.000003;-1.925781;0.771048;-0.021748;0.617188;-1.551784;0.009712;3.781250;369;143;318;149;0.189679;-0.084638;-0.299256;0.174017;0.111587;-0.300231;-0.201193;-0.106787;-0.297397;-0.186645;0.134804;-0.301840
1758267958.948617935181;0.142547;0.014601;0.640625;0.813921;0.012569;0.515625;-1.638579;0.004627;5.562500;-0.050745;-0.002091;-1.136719;0.847226;-0.002160;0.343750;-1.599421;-0.000080;3.597656;0.067701;0.002109;1.035156;0.857217;0.003496;-0.046875;-1.625056;-0.009795;5.785156;0.026644;0.011287;-1.878906;0.771108;0.000266;0.714844;-1.551784;0.004496;3.707031;369;142;318;149;0.189679;-0.084638;-0.299256;0.173999;0.111605;-0.300227;-0.201193;-0.106769;-0.297400;-0.186664;0.134804;-0.301840
1758267958.968496799469;0.142486;-0.000297;0.566406;0.813860;0.000201;0.515625;-1.638620;-0.010200;5.562500;-0.050806;-0.013444;-1.160156;0.847226;0.000036;0.394531;-1.599380;0.009130;3.632812;0.067701;0.005109;1.183594;0.857157;-0.009431;-0.023438;-1.625015;0.001935;5.750000;0.026584;-0.000258;-1.953125;0.771108;0.011429;0.664062;-1.551784;0.006099;3.929688;369;143;318;149;0.189679;-0.084638;-0.299256;0.173999;0.111587;-0.300231;-0.201187;-0.106769;-0.297394;-0.186627;0.134804;-0.301840
1758267958.988298654556;0.142547;0.015182;0.664062;0.813921;0.015027;0.589844;-1.638620;-0.012072;5.601562;-0.050745;0.005871;-1.011719;0.847226;0.003278;0.171875;-1.599421;-0.000001;3.746094;0.067640;-0.000971;1.136719;0.857157;-0.010708;0.000000;-1.625015;0.005627;5.710938;0.026584;-0.006156;-1.828125;0.771048;-0.019220;0.714844;-1.551784;0.003587;3.781250;369;143;318;149;0.189679;-0.084638;-0.299256;0.173999;0.111605;-0.300227;-0.201170;-0.106769;-0.297395;-0.186627;0.134804;-0.301840
1758267959.008415460587;0.142486;0.000238;0.664062;0.813921;0.002572;0.515625;-1.638579;0.000397;5.527344;-0.050745;0.001035;-1.035156;0.847226;0.001342;0.320312;-1.599421;-0.002101;3.671875;0.067701;0.005481;1.183594;0.857217;0.003131;0.000000;-1.625015;0.000824;5.750000;0.026584;-0.001034;-1.902344;0.771108;0.004520;0.789062;-1.551784;0.002416;3.781250;369;142;318;149;0.189662;-0.084638;-0.299256;0.173999;0.111605;-0.300227;-0.201170;-0.106769;-0.297395;-0.186645;0.134804;-0.301840
1758267959.028082132339;0.142486;-0.000222;0.589844;0.813860;-0.004940;0.542969;-1.638579;0.002028;5.675781;-0.050745;0.000543;-0.960938;0.847226;0.000580;0.367188;-1.599380;0.008726;3.597656;0.067640;-0.009897;1.183594;0.857217;0.012149;-0.023438;-1.625056;-0.009328;5.859375;0.026644;0.017979;-1.902344;0.771169;0.015172;0.812500;-1.551784;0.006791;3.929688;369;142;317;149;0.189662;-0.084638;-0.299256;0.173999;0.111605;-0.300227;-0.201193;-0.106769;-0.297400;-0.186639;0.134804;-0.301834
1758267959.048427104950;0.142486;-0.008429;0.664062;0.813921;0.001444;0.566406;-1.638620;-0.006710;5.527344;-0.050745;0.000584;-0.960938;0.847226;0.000200;0.367188;-1.599421;-0.002158;3.597656;0.067701;0.012302;1.183594;0.857217;-0.000851;0.000000;-1.625015;0.000100;5.824219;0.026584;-0.000805;-1.953125;0.771169;0.010359;0.789062;-1.551824;-0.008586;3.820312;369;142;318;149;0.189662;-0.084638;-0.299256;0.173999;0.111605;-0.300227;-0.201176;-0.106787;-0.297398;-0.186645;0.134804;-0.301840
1758267959.068326711655;0.142486;-0.000065;0.589844;0.813860;-0.014087;0.441406;-1.638620;-0.004014;5.601562;-0.050745;0.000317;-0.937500;0.847226;0.000365;0.320312;-1.599380;0.006255;3.671875;0.067701;0.009715;1.160156;0.857217;0.004424;-0.023438;-1.625015;0.005442;5.785156;0.026584;0.000409;-1.828125;0.771108;-0.001133;0.812500;-1.551784;0.006042;3.746094;370;142;317;149;0.189679;-0.084638;-0.299256;0.173992;0.111605;-0.300232;-0.201187;-0.106769;-0.297394;-0.186645;0.134804;-0.301840
1758267959.088163375854;0.142486;0.000005;0.542969;0.813921;0.004663;0.542969;-1.638620;-0.009780;5.562500;-0.050745;0.002735;-1.085938;0.847226;0.005915;0.468750;-1.599421;-0.001344;3.632812;0.067701;0.007721;1.160156;0.857217;0.009804;-0.023438;-1.625015;0.001710;5.785156;0.026584;-0.005596;-1.804688;0.771108;0.002139;0.691406;-1.551824;0.003987;3.707031;370;143;317;149;0.189679;-0.084638;-0.299256;0.173999;0.111605;-0.300227;-0.201176;-0.106787;-0.297398;-0.186645;0.134804;-0.301840
1758267959.108131885529;0.142486;-0.003222;0.566406;0.813921;-0.001184;0.542969;-1.638579;0.004749;5.601562;-0.050745;0.000716;-1.085938;0.847226;0.000172;0.246094;-1.599380;0.003322;3.746094;0.067701;0.004660;1.136719;0.857217;0.000203;-0.023438;-1.625056;-0.003186;5.675781;0.026584;-0.004701;-1.925781;0.771048;-0.013209;0.714844;-1.551784;0.001016;3.707031;370;143;317;149;0.189662;-0.084638;-0.299256;0.173992;0.111605;-0.300232;-0.201187;-0.106769;-0.297394;-0.186621;0.134822;-0.301829
1758267959.128046035767;0.142547;0.014703;0.589844;0.813921;0.007673;0.468750;-1.638579;0.003033;5.636719;-0.050806;0.001815;-0.988281;0.847226;-0.000549;0.343750;-1.599421;0.000034;3.707031;0.067640;-0.007781;1.160156;0.857217;0.015299;-0.046875;-1.625015;0.003033;5.750000;0.026584;-0.001378;-1.851562;0.771108;-0.001758;0.664062;-1.551824;-0.002744;3.707031;370;142;317;148;0.189662;-0.084620;-0.299258;0.173999;0.111587;-0.300231;-0.201193;-0.106787;-0.297397;-0.186639;0.134804;-0.301834
1758267959.148148775101;0.142547;0.014276;0.691406;0.813860;-0.008772;0.492188;-1.638620;-0.007739;5.636719;-0.050745;-0.000680;-1.210938;0.847226;0.003248;0.269531;-1.599421;-0.005905;3.632812;0.067640;-0.004751;1.160156;0.857157;-0.000357;-0.023438;-1.625015;0.005493;5.750000;0.026584;-0.013478;-1.804688;0.771108;0.005429;0.691406;-1.551784;0.005241;3.746094;369;142;317;149;0.189662;-0.084638;-0.299256;0.174010;0.111605;-0.300233;-0.201176;-0.106769;-0.297401;-0.186645;0.134804;-0.301840
1758267959.168117046356;0.142486;-0.000467;0.589844;0.813921;0.001652;0.492188;-1.638620;-0.001124;5.562500;-0.050745;0.007504;-1.035156;0.847226;0.005727;0.269531;-1.599421;-0.007466;3.632812;0.067640;-0.006023;1.160156;0.857157;0.001123;-0.121094;-1.625015;-0.000114;5.785156;0.026644;0.012919;-1.902344;0.771108;-0.002000;0.542969;-1.551824;-0.007437;3.671875;369;143;318;148;0.189685;-0.084639;-0.299250;0.173992;0.111605;-0.300232;-0.201176;-0.106787;-0.297398;-0.186621;0.134804;-0.301834
1758267959.188128471375;0.142547;0.011641;0.714844;0.813860;-0.008956;0.566406;-1.638620;-0.003252;5.488281;-0.050745;0.002555;-1.035156;0.847226;-0.000750;0.320312;-1.599421;-0.000562;3.746094;0.067579;-0.006730;1.160156;0.857157;0.000947;0.000000;-1.625056;-0.006530;5.636719;0.026584;-0.003662;-1.925781;0.771048;-0.024272;0.765625;-1.551784;0.007141;3.855469;369;142;317;149;0.189667;-0.084639;-0.299250;0.173992;0.111605;-0.300232;-0.201176;-0.106787;-0.297398;-0.186645;0.134804;-0.301840
1758267959.208182096481;0.142425;-0.010915;0.640625;0.813860;-0.008805;0.468750;-1.638579;-0.000157;5.601562;-0.050806;-0.005846;-1.183594;0.847165;-0.007629;0.269531;-1.599421;-0.005739;3.707031;0.067701;0.014731;1.160156;0.857157;-0.001602;-0.046875;-1.625015;0.004584;5.785156;0.026644;0.017608;-1.902344;0.771108;0.001457;0.664062;-1.551824;0.000574;3.746094;369;143;318;148;0.189679;-0.084638;-0.299256;0.174010;0.111586;-0.300237;-0.201182;-0.106786;-0.297404;-0.186645;0.134804;-0.301840
1758267959.228226661682;0.142486;-0.000750;0.738281;0.813860;-0.001259;0.589844;-1.638579;0.000292;5.636719;-0.050745;0.015807;-1.035156;0.847165;-0.007155;0.292969;-1.599421;-0.001658;3.671875;0.067701;0.009008;1.160156;0.857217;0.006347;-0.023438;-1.625056;-0.006256;5.785156;0.026644;0.018396;-1.878906;0.771048;-0.009590;0.640625;-1.551784;0.007832;3.746094;369;143;318;149;0.189679;-0.084638;-0.299256;0.173999;0.111605;-0.300227;-0.201193;-0.106787;-0.297397;-0.186621;0.134822;-0.301829
1758267959.248617887497;0.142486;-0.000802;0.640625;0.813921;0.013476;0.515625;-1.638579;0.000918;5.636719;-0.050806;-0.002375;-0.988281;0.847226;0.001494;0.343750;-1.599421;-0.008206;3.781250;0.067701;0.013578;1.234375;0.857157;0.000852;-0.070312;-1.625015;0.002366;5.710938;0.026584;-0.000089;-1.953125;0.771108;0.009832;0.640625;-1.551824;-0.007222;3.855469;369;142;318;148;0.189679;-0.084638;-0.299256;0.173999;0.111605;-0.300227;-0.201176;-0.106769;-0.297401;-0.186621;0.134804;-0.301834
1758267959.268692731857;0.142486;-0.003476;0.617188;0.813860;-0.000576;0.441406;-1.638620;-0.009644;5.675781;-0.050806;-0.001634;-1.062500;0.847165;-0.004203;0.394531;-1.599380;0.000783;3.558594;0.067579;-0.014806;1.160156;0.857217;0.007253;0.046875;-1.625056;-0.008662;5.675781;0.026644;0.015155;-1.851562;0.771108;0.001299;0.765625;-1.551824;-0.000044;3.707031;369;142;317;148;0.189679;-0.084638;-0.299256;0.173992;0.111586;-0.300236;-0.201176;-0.106787;-0.297398;-0.186615;0.134804;-0.301828
1758267959.288447141647;0.142486;0.003321;0.664062;0.813860;-0.007102;0.417969;-1.638579;0.004244;5.562500;-0.050806;-0.000051;-1.109375;0.847165;-0.014935;0.367188;-1.599421;-0.001857;3.632812;0.067640;-0.001442;1.183594;0.857217;0.009232;-0.023438;-1.625015;0.001327;5.824219;0.026644;0.012082;-1.878906;0.771048;-0.003628;0.640625;-1.551824;-0.001038;3.746094;369;142;318;148;0.189662;-0.084638;-0.299256;0.174017;0.111587;-0.300231;-0.201193;-0.106769;-0.297400;-0.186639;0.134804;-0.301834
1758267959.308412551880;0.142486;0.000192;0.664062;0.813921;0.010821;0.441406;-1.638579;-0.000069;5.562500;-0.050745;0.014896;-0.960938;0.847165;-0.006851;0.269531;-1.599421;-0.004007;3.632812;0.067640;-0.001127;1.085938;0.857157;-0.000494;-0.023438;-1.625056;-0.011272;5.675781;0.026584;-0.002741;-1.976562;0.771108;0.004474;0.738281;-1.551824;-0.005289;3.746094;369;143;318;149;0.189679;-0.084638;-0.299256;0.174017;0.111587;-0.300231;-0.201176;-0.106787;-0.297398;-0.186627;0.134804;-0.301840
1758267959.329048156738;0.142486;-0.000604;0.515625;0.813860;-0.003319;0.468750;-1.638579;0.000455;5.601562;-0.050745;0.002870;-1.035156;0.847226;0.000592;0.367188;-1.599380;0.004889;3.632812;0.067640;-0.000945;1.109375;0.857157;0.001986;-0.070312;-1.625015;0.001134;5.824219;0.026584;-0.003220;-1.902344;0.771108;0.000334;0.640625;-1.551784;0.012809;3.746094;369;142;317;148;0.189679;-0.084638;-0.299256;0.174010;0.111605;-0.300233;-0.201170;-0.106787;-0.297392;-0.186639;0.134822;-0.301829
1758267959.348655462265;0.142486;-0.000584;0.640625;0.813921;0.008312;0.417969;-1.638579;-0.000251;5.601562;-0.050745;0.001040;-1.062500;0.847226;0.001443;0.269531;-1.599421;-0.003742;3.707031;0.067640;0.004688;1.109375;0.857157;0.000545;-0.023438;-1.625056;-0.008668;5.675781;0.026584;-0.004422;-1.925781;0.771108;0.009528;0.738281;-1.551865;-0.009925;3.781250;369;143;317;148;0.189685;-0.084639;-0.299250;0.173992;0.111605;-0.300232;-0.201176;-0.106787;-0.297398;-0.186639;0.134804;-0.301834
1758267959.368492364883;0.142486;-0.001767;0.664062;0.813860;-0.000681;0.417969;-1.638579;0.002076;5.562500;-0.050806;-0.014249;-0.988281;0.847226;0.003631;0.269531;-1.599421;-0.000067;3.558594;0.067640;0.001683;1.085938;0.857157;0.000065;0.000000;-1.625015;0.003879;5.675781;0.026584;-0.005806;-2.000000;0.771108;0.002686;0.691406;-1.551824;-0.006138;3.746094;369;142;317;148;0.189679;-0.084638;-0.299256;0.173999;0.111605;-0.300227;-0.201193;-0.106805;-0.297393;-0.186645;0.134804;-0.301840
1758267959.388484001160;0.142486;0.000638;0.589844;0.813921;0.005381;0.492188;-1.638620;-0.008651;5.675781;-0.050745;0.009011;-1.035156;0.847165;-0.003191;0.292969;-1.599421;-0.007170;3.523438;0.067640;0.002378;1.183594;0.857157;-0.001400;-0.121094;-1.625015;0.003700;5.710938;0.026584;-0.002173;-1.878906;0.771108;0.000841;0.664062;-1.551824;-0.000560;3.746094;369;142;317;149;0.189679;-0.084638;-0.299256;0.173992;0.111605;-0.300232;-0.201170;-0.106787;-0.297392;-0.186645;0.134804;-0.301840
1758267959.408263444901;0.142486;-0.004011;0.664062;0.813860;-0.001316;0.515625;-1.638579;0.006182;5.527344;-0.050745;0.001689;-1.035156;0.847226;0.000117;0.097656;-1.599421;-0.003470;3.671875;0.067701;0.002711;1.257812;0.857157;0.000614;-0.046875;-1.625015;0.005604;5.675781;0.026584;-0.000263;-2.000000;0.771108;0.007635;0.664062;-1.551824;-0.003190;3.820312;370;142;317;149;0.189685;-0.084639;-0.299250;0.173999;0.111605;-0.300227;-0.201176;-0.106769;-0.297401;-0.186645;0.134804;-0.301840
1758267959.428091287613;0.142486;0.004961;0.566406;0.813921;0.009139;0.468750;-1.638579;0.004623;5.527344;-0.050806;-0.000534;-1.085938;0.847226;-0.001040;0.292969;-1.599421;-0.001530;3.707031;0.067701;0.004325;1.136719;0.857157;0.001210;0.023438;-1.625015;0.000118;5.750000;0.026644;0.017339;-1.878906;0.771108;-0.001694;0.617188;-1.551784;0.010597;3.746094;369;143;317;149;0.189679;-0.084638;-0.299256;0.173999;0.111587;-0.300231;-0.201176;-0.106787;-0.297398;-0.186639;0.134822;-0.301829
1758267959.448261260986;0.142486;0.000483;0.617188;0.813860;-0.005951;0.441406;-1.638579;0.003337;5.601562;-0.050745;0.001256;-1.035156;0.847226;0.001198;0.292969;-1.599421;0.000459;3.707031;0.067640;-0.007268;1.210938;0.857157;0.005254;0.000000;-1.625015;0.007950;5.636719;0.026644;0.012301;-1.828125;0.771108;0.001947;0.789062;-1.551824;-0.000551;3.746094;369;142;317;148;0.189679;-0.084638;-0.299256;0.173992;0.111605;-0.300232;-0.201176;-0.106787;-0.297398;-0.186639;0.134804;-0.301834
1758267959.468579530716;0.142486;0.000291;0.617188;0.813921;0.007914;0.492188;-1.638579;0.001940;5.601562;-0.050745;0.000756;-1.035156;0.847226;0.001393;0.394531;-1.599421;-0.004764;3.746094;0.067701;0.012402;1.210938;0.857157;-0.000921;-0.070312;-1.625015;-0.000203;5.562500;0.026584;-0.003061;-1.976562;0.771048;-0.005287;0.664062;-1.551784;0.004939;3.671875;369;143;317;148;0.189662;-0.084638;-0.299256;0.173981;0.111605;-0.300226;-0.201176;-0.106787;-0.297398;-0.186645;0.134822;-0.301835
1758267959.488239765167;0.142486;-0.000835;0.542969;0.813921;0.013683;0.468750;-1.638579;-0.002084;5.562500;-0.050745;0.002415;-1.011719;0.847226;-0.000201;0.269531;-1.599421;-0.001320;3.558594;0.067701;0.000856;1.136719;0.857217;0.013937;0.000000;-1.625015;0.000473;5.710938;0.026584;0.000704;-1.730469;0.771108;0.003920;0.691406;-1.551824;-0.006148;3.746094;369;142;317;148;0.189685;-0.084639;-0.299250;0.173992;0.111605;-0.300232;-0.201176;-0.106769;-0.297401;-0.186645;0.134804;-0.301840
1758267959.508623123169;0.142547;0.014761;0.664062;0.813921;0.014074;0.417969;-1.638579;0.000631;5.562500;-0.050806;0.003789;-1.062500;0.847226;-0.005478;0.367188;-1.599380;0.005184;3.632812;0.067640;-0.002021;1.160156;0.857157;-0.003558;-0.023438;-1.625015;0.000529;5.675781;0.026584;0.000509;-1.878906;0.771108;-0.000975;0.738281;-1.551824;-0.004296;3.707031;370;142;317;148;0.189662;-0.084638;-0.299256;0.173999;0.111587;-0.300231;-0.201176;-0.106769;-0.297401;-0.186627;0.134804;-0.301840
1758267959.528511524200;0.142486;-0.008945;0.640625;0.813921;0.014633;0.515625;-1.638579;0.001139;5.562500;-0.050745;-0.000630;-1.035156;0.847226;-0.000701;0.320312;-1.599380;0.004369;3.707031;0.067640;-0.007090;1.234375;0.857217;0.016076;0.000000;-1.625015;0.003020;5.710938;0.026584;-0.002951;-1.976562;0.771048;-0.017559;0.664062;-1.551824;-0.003550;3.707031;369;143;317;148;0.189679;-0.084638;-0.299256;0.173992;0.111605;-0.300232;-0.201193;-0.106769;-0.297400;-0.186639;0.134804;-0.301834
1758267959.548345327377;0.142486;-0.009010;0.589844;0.813860;0.004652;0.542969;-1.638620;-0.010641;5.562500;-0.050745;0.006879;-1.062500;0.847226;0.000835;0.246094;-1.599421;-0.001600;3.632812;0.067640;0.002344;1.183594;0.857157;0.000037;0.000000;-1.625056;-0.004368;5.636719;0.026584;-0.005666;-1.953125;0.771108;0.002870;0.691406;-1.551824;-0.008932;3.746094;370;143;317;148;0.189679;-0.084620;-0.299258;0.173992;0.111605;-0.300232;-0.201176;-0.106787;-0.297398;-0.186639;0.134822;-0.301829
1758267959.568143844604;0.142486;0.000551;0.617188;0.813860;-0.003389;0.492188;-1.638579;0.003954;5.562500;-0.050745;-0.000339;-1.062500;0.847226;0.002006;0.195312;-1.599421;-0.003826;3.671875;0.067701;0.002270;1.085938;0.857157;-0.000633;-0.097656;-1.625015;0.000498;5.785156;0.026584;-0.004892;-1.878906;0.771108;-0.000584;0.765625;-1.551784;0.002791;3.746094;369;142;317;148;0.189679;-0.084638;-0.299256;0.173999;0.111623;-0.300223;-0.201176;-0.106805;-0.297394;-0.186645;0.134804;-0.301840
1758267959.588089466095;0.142486;-0.000389;0.640625;0.813860;-0.011269;0.417969;-1.638620;-0.008597;5.601562;-0.050806;-0.012861;-1.085938;0.847226;0.001891;0.292969;-1.599421;-0.002024;3.523438;0.067640;-0.005876;1.183594;0.857157;-0.004933;-0.046875;-1.625015;0.006680;5.750000;0.026584;0.000410;-1.804688;0.771108;-0.000722;0.738281;-1.551784;0.007866;3.707031;369;142;317;148;0.189679;-0.084620;-0.299258;0.173999;0.111605;-0.300227;-0.201176;-0.106787;-0.297398;-0.186645;0.134822;-0.301835
1758267959.608393669128;0.142486;-0.000086;0.617188;0.813860;-0.002032;0.515625;-1.638579;0.000626;5.562500;-0.050806;-0.002685;-1.011719;0.847165;-0.018794;0.417969;-1.599380;0.011588;3.597656;0.067640;0.006024;1.183594;0.857157;0.001864;0.046875;-1.625015;0.002830;5.675781;0.026584;-0.010711;-1.925781;0.771048;-0.016758;0.738281;-1.551824;-0.003660;3.632812;369;142;317;149;0.189679;-0.084638;-0.299256;0.173999;0.111605;-0.300227;-0.201170;-0.106769;-0.297395;-0.186639;0.134822;-0.301829
1758267959.628682374954;0.142486;-0.000717;0.691406;0.813921;0.014651;0.542969;-1.638579;0.000292;5.601562;-0.050745;0.000982;-1.062500;0.847286;0.008815;0.343750;-1.599380;0.007528;3.597656;0.067579;-0.019643;1.234375;0.857157;0.000638;-0.023438;-1.625015;0.001105;5.636719;0.026584;-0.002995;-1.925781;0.771108;0.005820;0.617188;-1.551824;-0.000935;3.820312;370;142;317;149;0.189685;-0.084639;-0.299250;0.174017;0.111605;-0.300227;-0.201187;-0.106787;-0.297391;-0.186639;0.134804;-0.301834
1758267959.648685932159;0.142547;0.011432;0.640625;0.813921;0.014111;0.417969;-1.638620;-0.007661;5.562500;-0.050745;0.005059;-1.062500;0.847226;-0.000231;0.218750;-1.599421;-0.004556;3.632812;0.067640;-0.006958;1.234375;0.857157;0.000034;-0.046875;-1.625056;-0.012758;5.675781;0.026644;0.012790;-1.976562;0.771108;-0.001118;0.738281;-1.551784;0.000321;3.820312;369;143;317;148;0.189662;-0.084638;-0.299256;0.173992;0.111586;-0.300236;-0.201176;-0.106769;-0.297401;-0.186627;0.134804;-0.301840
1758267959.668144226074;0.142486;-0.004339;0.589844;0.813860;-0.004889;0.515625;-1.638620;-0.006808;5.562500;-0.050745;0.000407;-0.960938;0.847286;0.011752;0.292969;-1.599421;-0.007143;3.632812;0.067640;0.003980;1.136719;0.857157;0.001808;-0.046875;-1.625015;0.002195;5.785156;0.026584;-0.001279;-1.851562;0.771108;-0.000896;0.691406;-1.551824;-0.001110;3.820312;369;143;317;148;0.189679;-0.084620;-0.299258;0.173992;0.111586;-0.300236;-0.201176;-0.106787;-0.297398;-0.186639;0.134804;-0.301834
1758267959.688158035278;0.142486;-0.003300;0.691406;0.813860;-0.003485;0.542969;-1.638579;0.000105;5.675781;-0.050745;0.011827;-1.035156;0.847226;0.000403;0.367188;-1.599380;0.012154;3.632812;0.067640;-0.002312;1.183594;0.857157;-0.002976;-0.023438;-1.625015;-0.000102;5.675781;0.026584;-0.001115;-1.851562;0.771048;-0.006677;0.664062;-1.551824;-0.008068;3.894531;369;142;317;148;0.189679;-0.084638;-0.299256;0.173992;0.111605;-0.300232;-0.201176;-0.106787;-0.297398;-0.186621;0.134804;-0.301834
1758267959.708086967468;0.142486;-0.001139;0.664062;0.813860;-0.002023;0.492188;-1.638579;0.001619;5.675781;-0.050745;0.000535;-1.085938;0.847226;-0.000205;0.394531;-1.599380;0.006495;3.707031;0.067640;-0.007259;1.210938;0.857157;0.006415;-0.023438;-1.625015;0.001314;5.785156;0.026584;0.000104;-1.878906;0.771048;-0.016087;0.765625;-1.551824;-0.006206;3.855469;370;143;317;148;0.189679;-0.084638;-0.299256;0.173999;0.111605;-0.300227;-0.201193;-0.106787;-0.297397;-0.186621;0.134804;-0.301834
1758267959.728303194046;0.142547;0.013259;0.691406;0.813860;-0.000575;0.492188;-1.638579;0.009749;5.488281;-0.050745;-0.000696;-1.011719;0.847286;0.002008;0.218750;-1.599380;0.009328;3.597656;0.067701;0.019301;1.011719;0.857157;-0.006133;-0.070312;-1.625015;0.000949;5.601562;0.026644;0.006931;-1.878906;0.771048;-0.007819;0.738281;-1.551784;0.001858;3.746094;369;143;317;148;0.189685;-0.084639;-0.299250;0.173981;0.111605;-0.300226;-0.201176;-0.106787;-0.297398;-0.186627;0.134822;-0.301835
1758267959.748043537140;0.142486;-0.000665;0.691406;0.813921;0.006299;0.515625;-1.638579;0.000428;5.710938;-0.050745;0.000472;-0.914062;0.847226;-0.003977;0.246094;-1.599421;-0.005382;3.707031;0.067640;-0.001035;1.183594;0.857217;0.005105;0.070312;-1.625015;0.001992;5.824219;0.026644;0.014361;-1.902344;0.771169;0.002374;0.738281;-1.551784;0.000427;3.781250;369;143;317;148;0.189685;-0.084639;-0.299250;0.173981;0.111587;-0.300230;-0.201176;-0.106769;-0.297401;-0.186664;0.134804;-0.301840
1758267959.768268823624;0.142486;0.000659;0.589844;0.813860;-0.017164;0.515625;-1.638579;0.008534;5.562500;-0.050745;0.001949;-0.988281;0.847226;-0.005564;0.292969;-1.599421;0.001370;3.781250;0.067701;0.002996;1.183594;0.857157;-0.010084;0.000000;-1.625015;0.000103;5.710938;0.026584;-0.010989;-1.851562;0.771108;-0.000771;0.617188;-1.551824;-0.002201;3.781250;369;142;317;148;0.189679;-0.084638;-0.299256;0.173974;0.111605;-0.300232;-0.201193;-0.106787;-0.297397;-0.186645;0.134804;-0.301840
1758267959.788144826889;0.142486;-0.000079;0.664062;0.813860;-0.003444;0.468750;-1.638579;0.000371;5.562500;-0.050745;0.005183;-1.062500;0.847286;0.011626;0.394531;-1.599380;0.006515;3.746094;0.067640;-0.012891;1.160156;0.857217;0.004595;-0.023438;-1.625015;0.000125;5.785156;0.026584;-0.005326;-1.878906;0.771108;-0.000823;0.664062;-1.551824;-0.003125;3.820312;369;143;317;148;0.189662;-0.084638;-0.299256;0.173981;0.111605;-0.300226;-0.201193;-0.106787;-0.297397;-0.186658;0.134804;-0.301834
1758267959.807893514633;0.142486;0.000104;0.691406;0.813921;0.008543;0.468750;-1.638579;0.005939;5.562500;-0.050745;0.001011;-1.035156;0.847226;-0.011107;0.320312;-1.599421;-0.004135;3.820312;0.067701;0.006609;1.085938;0.857217;-0.005836;-0.070312;-1.625015;0.000344;5.675781;0.026584;-0.000896;-1.953125;0.771169;0.014319;0.714844;-1.551784;0.000099;3.781250;369;142;317;149;0.189679;-0.084638;-0.299256;0.173974;0.111623;-0.300228;-0.201193;-0.106769;-0.297400;-0.186645;0.134804;-0.301840
1758267959.828612565994;0.142547;0.015234;0.617188;0.813921;0.003625;0.492188;-1.638620;-0.009894;5.601562;-0.050745;-0.001201;-1.062500;0.847286;-0.001317;0.343750;-1.599380;-0.008956;3.632812;0.067640;-0.001457;1.160156;0.857157;0.000269;0.023438;-1.625015;0.000012;5.898438;0.026584;-0.002705;-1.925781;0.771108;-0.016925;0.714844;-1.551824;-0.001110;3.632812;370;142;317;148;0.189667;-0.084621;-0.299252;0.173974;0.111605;-0.300232;-0.201176;-0.106787;-0.297398;-0.186639;0.134804;-0.301834
1758267959.848436117172;0.142486;0.000116;0.640625;0.813921;-0.002869;0.492188;-1.638579;0.008107;5.601562;-0.050745;-0.000939;-1.062500;0.847226;-0.014185;0.292969;-1.599380;0.003744;3.820312;0.067701;0.002010;1.160156;0.857217;0.001629;-0.046875;-1.625015;0.000367;5.675781;0.026584;-0.004927;-1.730469;0.771169;0.000522;0.812500;-1.551824;-0.001613;3.707031;370;142;317;148;0.189662;-0.084638;-0.299256;0.173974;0.111605;-0.300232;-0.201193;-0.106787;-0.297397;-0.186664;0.134804;-0.301840
1758267959.867980241776;0.142486;0.000496;0.664062;0.813921;0.007527;0.515625;-1.638579;0.000100;5.601562;-0.050745;-0.004017;-1.109375;0.847286;0.005573;0.367188;-1.599380;0.003433;3.632812;0.067701;0.012104;1.160156;0.857217;0.008205;-0.023438;-1.625015;-0.000516;5.710938;0.026584;-0.002466;-1.902344;0.771169;0.005691;0.640625;-1.551744;0.009381;3.781250;370;142;317;148;0.189679;-0.084638;-0.299256;0.173974;0.111605;-0.300232;-0.201193;-0.106787;-0.297397;-0.186664;0.134804;-0.301840
1758267959.888161420822;0.142486;-0.003465;0.640625;0.813860;-0.010182;0.441406;-1.638579;0.001344;5.562500;-0.050745;-0.003053;-1.011719;0.847286;0.005196;0.343750;-1.599421;-0.000665;3.632812;0.067701;0.014109;1.085938;0.857217;0.001677;0.000000;-1.625015;0.001082;5.750000;0.026584;-0.004471;-2.050781;0.771108;-0.003922;0.738281;-1.551824;-0.000625;3.781250;369;143;317;148;0.189662;-0.084638;-0.299256;0.173999;0.111605;-0.300227;-0.201211;-0.106769;-0.297400;-0.186639;0.134804;-0.301834
1758267959.908798217773;0.142547;0.011244;0.566406;0.813860;-0.009220;0.468750;-1.638579;-0.001337;5.562500;-0.050806;-0.005189;-1.035156;0.847165;-0.017255;0.218750;-1.599380;0.012342;3.632812;0.067701;0.015445;1.183594;0.857217;0.000919;-0.097656;-1.625015;0.001211;5.824219;0.026584;-0.003440;-1.902344;0.771108;-0.004075;0.640625;-1.551824;0.000001;3.781250;370;142;317;148;0.189679;-0.084638;-0.299256;0.173999;0.111605;-0.300227;-0.201176;-0.106787;-0.297398;-0.186645;0.134804;-0.301840
1758267959.928433895111;0.142486;0.000055;0.617188;0.813921;0.014674;0.468750;-1.638579;0.003423;5.562500;-0.050745;-0.000621;-1.035156;0.847226;0.000999;0.144531;-1.599421;-0.000355;3.558594;0.067640;-0.008775;1.160156;0.857157;-0.003387;-0.023438;-1.625015;0.002434;5.636719;0.026584;-0.000437;-1.976562;0.771169;0.011913;0.691406;-1.551824;-0.003913;3.781250;369;142;316;148;0.189662;-0.084638;-0.299256;0.173974;0.111605;-0.300232;-0.201176;-0.106787;-0.297398;-0.186645;0.134804;-0.301840
1758267959.948566198349;0.142486;-0.000942;0.714844;0.813921;0.008267;0.417969;-1.638579;0.001033;5.527344;-0.050806;-0.018703;-0.988281;0.847226;0.000395;0.320312;-1.599421;0.000412;3.558594;0.067701;0.001552;1.210938;0.857217;0.002403;-0.046875;-1.625015;0.000044;5.750000;0.026584;-0.005980;-1.828125;0.771169;0.008797;0.738281;-1.551824;-0.000325;3.781250;369;142;317;149;0.189662;-0.084638;-0.299256;0.173974;0.111605;-0.300232;-0.201176;-0.106769;-0.297401;-0.186664;0.134822;-0.301835
1758267959.968391180038;0.142547;-0.002244;0.664062;0.813860;-0.011322;0.468750;-1.638579;0.001046;5.488281;-0.050745;0.000238;-1.011719;0.847226;-0.001786;0.218750;-1.599421;-0.003785;3.671875;0.067640;-0.005959;1.234375;0.857157;-0.000976;-0.121094;-1.625015;0.003845;5.750000;0.026584;-0.000742;-1.878906;0.771169;0.007823;0.714844;-1.551784;0.005804;3.707031;369;142;317;148;0.189662;-0.084638;-0.299256;0.173999;0.111605;-0.300227;-0.201193;-0.106769;-0.297400;-0.186639;0.134804;-0.301834
1758267959.988552808762;0.142547;0.008742;0.640625;0.813860;-0.007569;0.542969;-1.638579;-0.000540;5.527344;-0.050806;-0.013454;-1.085938;0.847226;-0.000394;0.144531;-1.599380;0.002468;3.671875;0.067640;-0.006030;1.160156;0.857157;-0.000902;0.000000;-1.625015;0.003117;5.750000;0.026584;-0.001033;-1.828125;0.771108;0.000405;0.617188;-1.551824;-0.011970;3.671875;369;142;317;148;0.189662;-0.084638;-0.299256;0.174010;0.111605;-0.300233;-0.201176;-0.106787;-0.297398;-0.186664;0.134804;-0.301840
1758267960.008180856705;0.142486;-0.000157;0.589844;0.813921;0.010858;0.468750;-1.638579;0.000949;5.636719;-0.050806;-0.002428;-1.035156;0.847226;0.005639;0.292969;-1.599421;-0.001087;3.449219;0.067640;-0.004513;1.109375;0.857157;0.000173;-0.097656;-1.625056;-0.012009;5.675781;0.026584;0.000275;-1.878906;0.771108;0.000167;0.640625;-1.551784;0.003559;3.820312;369;142;317;148;0.189685;-0.084639;-0.299250;0.174010;0.111605;-0.300233;-0.201176;-0.106805;-0.297394;-0.186664;0.134822;-0.301835
1758267960.028124570847;0.142486;-0.002576;0.640625;0.813860;-0.000233;0.515625;-1.638579;0.000974;5.527344;-0.050745;0.000528;-1.160156;0.847226;0.000259;0.292969;-1.599421;-0.003587;3.632812;0.067579;-0.005451;1.183594;0.857157;-0.001260;0.000000;-1.625015;0.001201;5.785156;0.026584;-0.010810;-1.976562;0.771108;-0.003954;0.691406;-1.551784;0.000409;3.781250;369;142;316;148;0.189667;-0.084639;-0.299250;0.173999;0.111605;-0.300227;-0.201176;-0.106787;-0.297398;-0.186664;0.134786;-0.301845
1758267960.048021554947;0.142486;-0.000323;0.566406;0.813860;-0.003100;0.542969;-1.638579;0.000087;5.562500;-0.050685;0.021468;-1.062500;0.847226;-0.005180;0.218750;-1.599380;0.010160;3.707031;0.067640;0.002730;1.183594;0.857157;-0.001583;-0.023438;-1.625015;-0.004072;5.636719;0.026584;-0.006101;-1.925781;0.771108;0.005524;0.664062;-1.551784;0.000214;3.746094;369;143;317;148;0.189685;-0.084639;-0.299250;0.173974;0.111605;-0.300232;-0.201176;-0.106787;-0.297398;-0.186645;0.134822;-0.301835
1758267960.068318605423;0.142486;0.001174;0.617188;0.813921;0.011070;0.468750;-1.638620;0.000279;5.562500;-0.050685;0.013071;-1.085938;0.847226;0.000006;0.246094;-1.599421;-0.000669;3.707031;0.067640;-0.016744;1.183594;0.857157;-0.005982;-0.046875;-1.625015;0.000091;5.675781;0.026584;-0.005268;-1.953125;0.771108;-0.000251;0.714844;-1.551784;0.000375;3.781250;369;142;316;148;0.189679;-0.084638;-0.299256;0.173999;0.111605;-0.300227;-0.201193;-0.106769;-0.297400;-0.186639;0.134804;-0.301834
1758267960.088094711304;0.142486;0.001252;0.664062;0.813860;-0.006523;0.394531;-1.638579;0.003752;5.527344;-0.050745;0.004895;-1.136719;0.847286;0.012578;0.292969;-1.599421;-0.001910;3.632812;0.067579;-0.016029;1.109375;0.857157;-0.004418;0.000000;-1.625015;0.004627;5.859375;0.026644;0.014886;-1.976562;0.771169;0.009624;0.640625;-1.551824;-0.005144;3.707031;369;143;316;148;0.189685;-0.084621;-0.299252;0.173992;0.111605;-0.300232;-0.201176;-0.106805;-0.297394;-0.186639;0.134804;-0.301834
1758267960.108268022537;0.142486;0.000263;0.664062;0.813860;0.000173;0.589844;-1.638620;-0.008338;5.562500;-0.050745;0.004424;-1.085938;0.847226;0.000452;0.292969;-1.599421;0.010349;3.671875;0.067640;-0.002409;1.109375;0.857157;-0.009201;-0.097656;-1.625015;0.000317;5.898438;0.026584;-0.000187;-1.953125;0.771108;0.000680;0.789062;-1.551824;-0.007086;3.855469;369;143;316;148;0.189662;-0.084638;-0.299256;0.173981;0.111605;-0.300226;-0.201170;-0.106787;-0.297392;-0.186645;0.134822;-0.301835
1758267960.128329277039;0.142486;-0.003575;0.589844;0.813921;0.007399;0.542969;-1.638579;0.003726;5.636719;-0.050745;0.001105;-0.937500;0.847165;-0.014107;0.246094;-1.599421;-0.000634;3.632812;0.067640;-0.001265;1.160156;0.857157;-0.000014;0.023438;-1.625015;0.000205;5.824219;0.026584;-0.000422;-1.777344;0.771108;-0.001830;0.664062;-1.551824;-0.005387;3.820312;370;143;316;148;0.189667;-0.084639;-0.299250;0.173999;0.111605;-0.300227;-0.201176;-0.106787;-0.297398;-0.186639;0.134804;-0.301834
1758267960.148788213730;0.142486;0.010020;0.566406;0.813921;0.004735;0.492188;-1.638579;0.005526;5.601562;-0.050745;-0.009271;-1.109375;0.847226;-0.016074;0.269531;-1.599421;-0.001916;3.671875;0.067640;-0.000722;1.062500;0.857157;-0.001785;0.000000;-1.625056;-0.006928;5.859375;0.026584;-0.002292;-1.878906;0.771169;0.005926;0.765625;-1.551824;-0.000815;3.746094;369;143;316;148;0.189679;-0.084620;-0.299258;0.173974;0.111605;-0.300232;-0.201187;-0.106787;-0.297391;-0.186639;0.134822;-0.301829
1758267960.168494462967;0.142486;0.000627;0.640625;0.813921;0.007763;0.492188;-1.638620;-0.007779;5.636719;-0.050806;-0.012349;-0.988281;0.847226;-0.001710;0.246094;-1.599421;-0.000082;3.632812;0.067640;-0.011688;1.285156;0.857217;-0.005685;0.000000;-1.625015;0.000048;5.710938;0.026584;-0.000173;-1.878906;0.771108;0.000861;0.714844;-1.551784;0.005019;3.671875;370;142;316;148;0.189662;-0.084638;-0.299256;0.173999;0.111605;-0.300227;-0.201193;-0.106787;-0.297397;-0.186645;0.134804;-0.301840
1758267960.188095092773;0.142486;-0.000040;0.589844;0.813860;-0.011398;0.589844;-1.638620;-0.002956;5.527344;-0.050745;0.003821;-1.109375;0.847226;-0.000593;0.246094;-1.599421;-0.002917;3.632812;0.067701;0.000311;1.234375;0.857217;0.008995;-0.023438;-1.625015;0.000288;5.785156;0.026584;-0.007157;-2.000000;0.771169;0.003439;0.765625;-1.551784;0.004869;3.820312;369;143;317;148;0.189679;-0.084638;-0.299256;0.173999;0.111605;-0.300227;-0.201193;-0.106769;-0.297400;-0.186645;0.134822;-0.301835
1758267960.208060026169;0.142486;-0.004283;0.691406;0.813860;-0.014744;0.542969;-1.638579;0.004399;5.562500;-0.050745;0.000461;-0.988281;0.847226;-0.005315;0.246094;-1.599421;-0.000201;3.746094;0.067701;0.010770;1.160156;0.857217;0.003072;0.046875;-1.625015;0.001776;5.750000;0.026584;-0.007682;-1.902344;0.771108;-0.000998;0.617188;-1.551824;-0.009534;3.820312;369;142;316;148;0.189662;-0.084638;-0.299256;0.173999;0.111605;-0.300227;-0.201176;-0.106787;-0.297398;-0.186645;0.134804;-0.301840
1758267960.228086471558;0.142486;-0.001568;0.617188;0.813921;0.006192;0.617188;-1.638579;0.005079;5.527344;-0.050745;0.002156;-1.062500;0.847226;-0.001720;0.617188;-1.599421;-0.000609;3.597656;0.067701;0.012505;1.136719;0.857217;-0.000262;-0.046875;-1.625015;-0.000240;5.750000;0.026584;-0.000371;-1.925781;0.771108;-0.011874;0.738281;-1.551784;0.004607;3.707031;369;143;316;148;0.189679;-0.084620;-0.299258;0.173999;0.111605;-0.300227;-0.201193;-0.106787;-0.297397;-0.186664;0.134804;-0.301840
1758267960.248025178909;0.142486;-0.001015;0.640625;0.813921;0.000659;0.589844;-1.638579;0.003444;5.675781;-0.050745;0.000375;-1.062500;0.847286;0.019154;0.343750;-1.599421;0.000186;3.632812;0.067701;-0.000590;1.160156;0.857217;-0.000257;-0.046875;-1.625015;0.000132;5.750000;0.026584;-0.007582;-1.828125;0.771048;-0.019516;0.738281;-1.551824;-0.009171;3.820312;369;142;316;148;0.189679;-0.084638;-0.299256;0.173992;0.111605;-0.300232;-0.201193;-0.106769;-0.297400;-0.186621;0.134804;-0.301834
1758267960.267954349518;0.142486;-0.005634;0.738281;0.813921;0.000521;0.492188;-1.638579;0.002476;5.562500;-0.050745;-0.005730;-0.988281;0.847286;0.002286;0.343750;-1.599421;-0.004124;3.671875;0.067701;-0.000038;1.109375;0.857217;0.000241;-0.046875;-1.625015;0.004805;5.675781;0.026584;-0.000308;-1.902344;0.771169;0.003177;0.664062;-1.551784;0.007899;3.781250;369;143;316;148;0.189685;-0.084657;-0.299248;0.173981;0.111605;-0.300226;-0.201193;-0.106769;-0.297400;-0.186645;0.134804;-0.301840
1758267960.287931203842;0.142486;-0.002369;0.664062;0.813860;-0.014643;0.515625;-1.638620;-0.007556;5.710938;-0.050745;0.002879;-1.035156;0.847226;-0.000873;0.292969;-1.599421;0.000180;3.632812;0.067640;-0.017238;1.210938;0.857217;-0.000069;0.023438;-1.625015;0.004412;5.785156;0.026584;-0.001090;-1.925781;0.771108;-0.008219;0.738281;-1.551824;-0.005066;3.746094;369;142;317;148;0.189685;-0.084639;-0.299250;0.173999;0.111605;-0.300227;-0.201187;-0.106787;-0.297391;-0.186664;0.134822;-0.301835
1758267960.308252334595;0.142547;0.006651;0.617188;0.813921;0.008559;0.441406;-1.638620;-0.005603;5.601562;-0.050745;-0.005523;-0.914062;0.847286;0.002609;0.218750;-1.599421;-0.004400;3.632812;0.067701;0.004376;1.257812;0.857217;0.001252;0.046875;-1.625015;0.004628;5.750000;0.026584;-0.005092;-2.000000;0.771169;0.005939;0.714844;-1.551784;0.006623;3.781250;369;142;316;148;0.189667;-0.084639;-0.299250;0.173999;0.111587;-0.300231;-0.201211;-0.106769;-0.297400;-0.186645;0.134804;-0.301840
1758267960.328124523163;0.142486;0.000194;0.664062;0.813921;0.001630;0.417969;-1.638620;-0.005283;5.562500;-0.050745;0.010067;-0.988281;0.847286;0.000812;0.320312;-1.599421;0.000005;3.632812;0.067701;-0.001451;1.210938;0.857217;-0.000554;0.000000;-1.625015;-0.002009;5.785156;0.026584;-0.001163;-1.828125;0.771108;-0.009570;0.714844;-1.551784;0.001788;3.671875;369;143;316;148;0.189667;-0.084639;-0.299250;0.173992;0.111605;-0.300232;-0.201176;-0.106751;-0.297405;-0.186658;0.134822;-0.301829
1758267960.348397493362;0.142486;-0.000229;0.566406;0.813921;0.000015;0.515625;-1.638620;-0.008156;5.562500;-0.050745;0.001127;-1.062500;0.847286;0.000691;0.320312;-1.599421;-0.007085;3.707031;0.067701;-0.001867;1.183594;0.857217;-0.000385;-0.023438;-1.625015;0.000946;5.859375;0.026584;-0.001562;-2.000000;0.771169;0.000340;0.714844;-1.551784;-0.004433;3.707031;369;142;316;148;0.189667;-0.084639;-0.299250;0.173992;0.111605;-0.300232;-0.201193;-0.106769;-0.297400;-0.186664;0.134804;-0.301840
1758267960.368494510651;0.142425;-0.015495;0.640625;0.813921;-0.000884;0.468750;-1.638620;-0.011863;5.636719;-0.050745;-0.000187;-0.988281;0.847286;0.002297;0.320312;-1.599380;0.007634;3.597656;0.067701;0.000022;1.210938;0.857217;0.000299;0.023438;-1.625015;0.000048;5.601562;0.026584;-0.009451;-1.902344;0.771169;-0.003134;0.640625;-1.551784;-0.004331;3.746094;369;143;316;148;0.189679;-0.084638;-0.299256;0.173999;0.111587;-0.300231;-0.201187;-0.106769;-0.297394;-0.186664;0.134804;-0.301840
1758267960.388148069382;0.142486;0.006122;0.640625;0.813921;0.000347;0.492188;-1.638579;0.000015;5.710938;-0.050745;0.007846;-1.062500;0.847226;-0.012307;0.246094;-1.599380;0.006088;3.671875;0.067761;-0.004111;1.183594;0.857278;0.006111;-0.046875;-1.625056;-0.012610;5.859375;0.026584;0.001191;-1.902344;0.771108;-0.016353;0.664062;-1.551784;0.003512;3.820312;369;142;316;148;0.189662;-0.084638;-0.299256;0.173981;0.111587;-0.300230;-0.201193;-0.106733;-0.297408;-0.186664;0.134822;-0.301835
1758267960.408166170120;0.142486;-0.000027;0.589844;0.813921;0.001556;0.542969;-1.638579;0.000759;5.601562;-0.050806;-0.010939;-1.109375;0.847286;0.005028;0.292969;-1.599421;-0.001690;3.707031;0.067701;-0.000287;1.160156;0.857217;0.000187;-0.070312;-1.625015;0.006784;5.972656;0.026644;0.008386;-1.953125;0.771169;0.000186;0.738281;-1.551824;-0.000592;3.894531;369;142;316;147;0.189644;-0.084638;-0.299256;0.173974;0.111605;-0.300232;-0.201193;-0.106769;-0.297400;-0.186664;0.134804;-0.301840
1758267960.428173065186;0.142425;-0.014514;0.640625;0.813921;-0.000075;0.492188;-1.638579;-0.000466;5.636719;-0.050745;0.001001;-1.136719;0.847286;0.000773;0.343750;-1.599421;0.000183;3.746094;0.067701;0.001811;1.210938;0.857278;0.012902;0.000000;-1.625015;0.000125;5.785156;0.026584;-0.001009;-1.878906;0.771169;-0.016853;0.640625;-1.551824;-0.000313;3.781250;369;142;316;147;0.189662;-0.084638;-0.299256;0.173981;0.111605;-0.300226;-0.201193;-0.106787;-0.297397;-0.186682;0.134804;-0.301840
1758267960.448184967041;0.142486;0.000536;0.640625;0.813921;-0.004921;0.542969;-1.638579;0.000184;5.675781;-0.050745;-0.003336;-1.035156;0.847286;-0.000960;0.292969;-1.599380;0.010105;3.707031;0.067640;-0.004322;1.136719;0.857217;-0.007054;0.144531;-1.625015;0.002088;5.750000;0.026584;-0.000233;-2.000000;0.771169;-0.004111;0.714844;-1.551784;-0.000059;3.746094;369;142;316;148;0.189662;-0.084638;-0.299256;0.173981;0.111605;-0.300226;-0.201193;-0.106769;-0.297400;-0.186682;0.134804;-0.301840
1758267960.468688488007;0.142486;-0.005937;0.664062;0.813921;-0.001044;0.492188;-1.638579;-0.000098;5.675781;-0.050806;-0.008391;-1.011719;0.847286;-0.006786;0.417969;-1.599421;-0.004855;3.707031;0.067640;-0.001095;1.085938;0.857217;-0.000782;0.000000;-1.625015;0.003682;5.933594;0.026584;-0.003894;-1.902344;0.771229;-0.000704;0.664062;-1.551824;-0.004163;3.781250;370;143;316;148;0.189662;-0.084638;-0.299256;0.173963;0.111587;-0.300229;-0.201211;-0.106769;-0.297400;-0.186664;0.134804;-0.301840
1758267960.488081216812;0.142547;0.010310;0.566406;0.813921;-0.004005;0.542969;-1.638579;-0.000347;5.601562;-0.050806;-0.013993;-1.085938;0.847286;-0.007208;0.367188;-1.599421;-0.002274;3.671875;0.067640;-0.001927;1.062500;0.857217;0.000479;0.023438;-1.625015;0.000196;5.859375;0.026584;-0.007988;-1.851562;0.771169;-0.008487;0.664062;-1.551824;-0.000316;3.781250;369;142;316;148;0.189662;-0.084638;-0.299256;0.173981;0.111605;-0.300226;-0.201193;-0.106787;-0.297397;-0.186676;0.134804;-0.301834
1758267960.507989168167;0.142547;0.011862;0.589844;0.813981;0.015061;0.515625;-1.638579;0.000247;5.636719;-0.050745;0.002203;-0.937500;0.847286;-0.000629;0.343750;-1.599421;-0.000086;3.671875;0.067701;0.014583;1.160156;0.857217;-0.001624;-0.070312;-1.625056;-0.012737;5.710938;0.026584;-0.000484;-1.851562;0.771169;-0.000362;0.617188;-1.551784;0.005371;3.929688;369;143;316;148;0.189662;-0.084638;-0.299256;0.173974;0.111587;-0.300236;-0.201193;-0.106787;-0.297397;-0.186664;0.134804;-0.301840
1758267960.528040885925;0.142486;-0.006324;0.738281;0.813921;-0.000288;0.441406;-1.638620;-0.012892;5.710938;-0.050806;-0.009457;-1.085938;0.847286;0.000106;0.367188;-1.599421;-0.002312;3.632812;0.067701;-0.000437;1.160156;0.857278;0.015256;0.000000;-1.625015;0.000209;5.750000;0.026584;-0.000558;-1.976562;0.771169;-0.006070;0.738281;-1.551824;-0.001369;3.746094;369;143;316;148;0.189662;-0.084638;-0.299256;0.173956;0.111605;-0.300231;-0.201193;-0.106787;-0.297397;-0.186658;0.134822;-0.301829
1758267960.548121690750;0.142486;0.000813;0.589844;0.813921;-0.000031;0.492188;-1.638579;-0.000124;5.710938;-0.050745;0.002691;-0.988281;0.847347;-0.000782;0.417969;-1.599421;-0.000189;3.746094;0.067701;-0.002312;1.210938;0.857217;-0.006410;-0.070312;-1.625015;-0.000090;5.710938;0.026584;-0.002862;-2.027344;0.771229;0.009652;0.664062;-1.551824;-0.000001;3.746094;369;142;316;148;0.189662;-0.084638;-0.299256;0.173963;0.111605;-0.300225;-0.201211;-0.106787;-0.297396;-0.186658;0.134804;-0.301834
1758267960.568102836609;0.142486;0.004063;0.640625;0.813921;0.000317;0.492188;-1.638579;-0.000186;5.562500;-0.050745;0.001572;-1.035156;0.847347;-0.000001;0.664062;-1.599380;0.012771;3.597656;0.067701;0.009045;1.210938;0.857217;-0.010144;0.000000;-1.625015;-0.002754;5.933594;0.026584;-0.000235;-1.878906;0.771108;-0.014285;0.714844;-1.551824;-0.001429;3.707031;369;142;316;148;0.189662;-0.084656;-0.299254;0.173963;0.111605;-0.300225;-0.201211;-0.106769;-0.297400;-0.186658;0.134804;-0.301834
1758267960.588078260422;0.142486;0.001111;0.617188;0.813981;0.019196;0.542969;-1.638579;0.000052;5.601562;-0.050745;0.002405;-1.136719;0.847347;-0.000325;0.246094;-1.599380;0.006585;3.632812;0.067701;0.000217;1.183594;0.857217;-0.011181;0.000000;-1.625015;0.000258;5.824219;0.026644;0.009542;-1.953125;0.771229;0.006354;0.714844;-1.551824;-0.000534;3.746094;369;142;316;147;0.189662;-0.084638;-0.299256;0.173963;0.111587;-0.300229;-0.201193;-0.106769;-0.297400;-0.186676;0.134804;-0.301834
1758267960.608192682266;0.142486;-0.001594;0.664062;0.813921;0.000090;0.492188;-1.638579;0.000353;5.601562;-0.050745;0.006637;-1.062500;0.847347;-0.002527;0.343750;-1.599421;0.000372;3.707031;0.067701;0.004444;1.183594;0.857278;0.009565;-0.023438;-1.625015;0.001283;5.859375;0.026584;-0.007015;-1.902344;0.771169;0.000317;0.714844;-1.551824;-0.001665;3.597656;369;142;316;148;0.189662;-0.084638;-0.299256;0.173963;0.111605;-0.300225;-0.201211;-0.106769;-0.297400;-0.186658;0.134804;-0.301834
1758267960.628068923950;0.142486;-0.002030;0.589844;0.813981;0.009123;0.492188;-1.638579;0.001873;5.636719;-0.050745;-0.000327;-1.062500;0.847347;-0.003259;0.269531;-1.599421;-0.000688;3.558594;0.067640;-0.001802;1.257812;0.857217;-0.001640;0.000000;-1.625015;-0.000123;5.785156;0.026584;-0.000488;-1.953125;0.771229;0.000765;0.691406;-1.551784;-0.000497;3.746094;369;142;316;148;0.189662;-0.084620;-0.299258;0.173963;0.111587;-0.300229;-0.201211;-0.106787;-0.297396;-0.186682;0.134804;-0.301840
1758267960.688438892365;0.142486;0.007318;0.566406;0.813981;0.008998;0.542969;-1.638579;0.008461;5.601562;-0.050745;0.012808;-1.160156;0.847347;0.002612;0.171875;-1.599421;-0.003895;3.781250;0.067701;-0.004815;1.109375;0.857217;-0.010332;0.023438;-1.625015;0.000216;5.750000;0.026584;-0.005208;-2.074219;0.771229;-0.000392;0.640625;-1.551784;0.007451;3.671875;369;142;316;147;0.189662;-0.084638;-0.299256;0.173963;0.111605;-0.300225;-0.201193;-0.106787;-0.297397;-0.186682;0.134822;-0.301835
1758267960.708331584930;0.142425;-0.015513;0.617188;0.813981;0.003022;0.492188;-1.638579;-0.000243;5.601562;-0.050806;-0.013609;-0.960938;0.847408;0.025213;0.441406;-1.599421;-0.000305;3.707031;0.067701;0.005428;1.183594;0.857278;0.005120;-0.023438;-1.625015;0.000240;5.859375;0.026644;0.015924;-1.878906;0.771229;-0.004844;0.765625;-1.551784;0.004281;3.746094;369;142;316;147;0.189644;-0.084638;-0.299256;0.173963;0.111605;-0.300225;-0.201211;-0.106769;-0.297400;-0.186682;0.134804;-0.301840
1758267960.728147268295;0.142486;0.008271;0.617188;0.813981;0.007393;0.468750;-1.638579;-0.000212;5.562500;-0.050806;-0.005170;-1.085938;0.847408;0.022863;0.292969;-1.599421;-0.000127;3.707031;0.067640;-0.015203;1.183594;0.857278;-0.000156;0.000000;-1.625015;-0.000026;5.750000;0.026584;-0.000276;-1.902344;0.771229;0.005371;0.914062;-1.551824;-0.007122;3.746094;370;142;316;147;0.189662;-0.084638;-0.299256;0.173963;0.111587;-0.300229;-0.201211;-0.106769;-0.297400;-0.186676;0.134804;-0.301834
1758267960.748157262802;0.142486;0.000016;0.640625;0.813921;-0.002851;0.589844;-1.638579;-0.000001;5.601562;-0.050806;-0.011261;-1.035156;0.847347;0.004751;0.367188;-1.599380;0.003862;3.597656;0.067701;0.006449;1.136719;0.857278;0.000444;0.000000;-1.625015;-0.000092;5.898438;0.026644;0.016225;-1.878906;0.771229;0.008326;0.789062;-1.551824;-0.006747;3.746094;369;142;316;147;0.189662;-0.084656;-0.299254;0.173981;0.111605;-0.300226;-0.201211;-0.106769;-0.297400;-0.186676;0.134804;-0.301834
1758267960.808345079422;0.142486;0.000091;0.640625;0.813981;0.006572;0.542969;-1.638579;0.005083;5.488281;-0.050745;-0.009570;-1.109375;0.847408;0.008395;0.218750;-1.599380;0.008614;3.632812;0.067640;-0.000185;1.160156;0.857217;-0.014223;-0.046875;-1.625015;-0.000488;5.750000;0.026644;0.010267;-1.953125;0.771229;0.000968;0.789062;-1.551784;0.002676;3.707031;369;142;316;148;0.189662;-0.084638;-0.299256;0.173945;0.111623;-0.300220;-0.201211;-0.106787;-0.297396;-0.186682;0.134804;-0.301840
1758267960.828790664673;0.142486;0.000041;0.589844;0.813981;0.008358;0.468750;-1.638620;-0.007175;5.527344;-0.050745;-0.001028;-1.011719;0.847347;0.001738;0.320312;-1.599421;-0.000259;3.671875;0.067640;-0.010848;1.257812;0.857217;-0.012100;0.070312;-1.625015;0.002880;5.824219;0.026584;-0.001080;-1.925781;0.771229;-0.000577;0.714844;-1.551784;0.004044;3.746094;370;142;315;148;0.189662;-0.084638;-0.299256;0.173945;0.111605;-0.300224;-0.201193;-0.106787;-0.297397;-0.186682;0.134822;-0.301835
1758267960.888142347336;0.142486;0.002209;0.589844;0.813981;0.001291;0.589844;-1.638579;-0.000776;5.601562;-0.050745;0.002474;-1.035156;0.847408;0.002575;0.269531;-1.599421;0.000113;3.523438;0.067640;-0.000279;1.160156;0.857217;-0.006929;0.023438;-1.625015;0.000321;5.859375;0.026584;-0.000116;-1.902344;0.771290;0.009613;0.664062;-1.551784;0.005687;3.746094;369;142;316;147;0.189662;-0.084638;-0.299256;0.173963;0.111605;-0.300225;-0.201193;-0.106787;-0.297397;-0.186694;0.134804;-0.301834
